; HEADER_BLOCK_START
; generated by Creality_Print V6.1.0.2041 on 2025-04-23 at 08:58:45
; total layer number: 49
; filament_density: 1.24
; filament_diameter: 1.75
; max_z_height: 14.70
; HEADER_BLOCK_END

; MINX = 85.00
; MINY = 85.00
; MINZ = 0.00
; MAXX = 135.00
; MAXY = 135.00
; MAXZ = 14.74

; THUMBNAIL_BLOCK_START

;
; THUMBNAIL_BLOCK_END

; THUMBNAIL_BLOCK_START

;
; THUMBNAIL_BLOCK_END

; external perimeters extrusion width = 0.62mm
; perimeters extrusion width = 0.62mm
; infill extrusion width = 0.62mm
; solid infill extrusion width = 0.62mm
; top infill extrusion width = 0.62mm
; support material extrusion width = 0.62mm
; first layer extrusion width = 0.62mm

; EXECUTABLE_BLOCK_START
EXCLUDE_OBJECT_DEFINE NAME=S_Gun_Holder.stl_id_0_copy_0 CENTER=110,110 POLYGON=[[85,110],[85.38,105.659],[86.508,101.45],[88.35,97.4995],[90.849,93.9305],[93.931,90.8485],[97.5,88.3495],[101.45,86.5075],[105.659,85.3795],[110,84.9995],[114.342,85.3795],[118.551,86.5075],[122.5,88.3495],[126.07,90.8485],[129.151,93.9305],[131.651,97.4995],[133.493,101.45],[134.621,105.659],[135,110],[134.621,114.341],[133.493,118.55],[131.651,122.5],[129.151,126.07],[126.07,129.151],[122.5,131.65],[118.551,133.492],[114.342,134.62],[110,135.001],[105.659,134.62],[101.45,133.492],[97.5,131.65],[93.931,129.151],[90.849,126.07],[88.35,122.5],[86.508,118.55],[85.38,114.341],[85,110]]
M73 P0 R9
M106 S0
M106 P2 S0
;TYPE:Custom
M141 S35;set chamber_temperature
START_PRINT EXTRUDER_TEMP=210 BED_TEMP=50
T0
M204 S2000
M104 S210
G1 Z3 F600
M83
G92 E0
G1 Z1 F600
G90
G21
M83 ; use relative distances for extrusion
SET_PRESSURE_ADVANCE ADVANCE=0.026; Override pressure advance value
G1 E-1.2 F2400
M106 S0
;LAYER_CHANGE
;Z:0.3
;HEIGHT:0.3
;BEFORE_LAYER_CHANGE
;0.3
G92 E0

;AFTER_LAYER_CHANGE
;0.3
;_SET_FAN_SPEED_CHANGING_LAYER
SET_VELOCITY_LIMIT ACCEL=500 ACCEL_TO_DECEL=250
SET_VELOCITY_LIMIT SQUARE_CORNER_VELOCITY=12
EXCLUDE_OBJECT_START NAME=S_Gun_Holder.stl_id_0_copy_0
G1 Z.4 F30000
G1 X133.916 Y110.617
G1 Z.3
G1 E1.2 F1800
;TYPE:Inner wall
;WIDTH:0.62
G1 F2400
G1 X133.606 Y114.163 E.2417
G1 X132.525 Y118.198 E.28373
G1 X130.759 Y121.984 E.28374
G1 X128.362 Y125.407 E.28379
G1 X125.408 Y128.362 E.28376
G1 X121.985 Y130.758 E.28375
G1 X118.198 Y132.524 E.28374
G1 X114.163 Y133.606 E.28374
G1 X110 Y133.97 E.2838
G1 X105.838 Y133.606 E.28374
G1 X101.802 Y132.524 E.28375
G1 X98.015 Y130.758 E.28379
G1 X94.593 Y128.362 E.2837
G1 X91.638 Y125.407 E.2838
G1 X89.242 Y121.984 E.28376
G1 X87.476 Y118.198 E.28375
G1 X86.395 Y114.162 E.28373
G1 X86.03 Y110 E.28381
G1 X86.395 Y105.838 E.28374
G1 X87.476 Y101.802 E.28374
G1 X89.242 Y98.015 E.2838
G1 X91.638 Y94.593 E.2837
G1 X94.593 Y91.638 E.28381
G1 X98.015 Y89.242 E.2837
G1 X101.802 Y87.476 E.28379
G1 X105.838 Y86.394 E.28375
G1 X110 Y86.03 E.28374
G1 X114.163 Y86.394 E.2838
G1 X118.198 Y87.476 E.28374
G1 X121.985 Y89.242 E.28375
G1 X125.408 Y91.638 E.28375
G1 X128.362 Y94.593 E.28377
G1 X130.759 Y98.015 E.28374
G1 X132.525 Y101.802 E.28379
G1 X133.537 Y105.581 E.2657
G1 X133.629 Y106.102 E.03592
G1 X133.97 Y110 E.26571
G1 X133.921 Y110.557 E.03803
G1 X134.527 Y109.999 F30000
;TYPE:Outer wall
G1 F2400
G1 X134.155 Y114.259 E.29041
G1 X133.049 Y118.389 E.29034
G1 X131.242 Y122.263 E.29034
G1 X128.789 Y125.766 E.29039
M73 P1 R9
G1 X125.766 Y128.789 E.29037
M73 P1 R9
G1 X122.264 Y131.241 E.29035
G1 X118.389 Y133.048 E.29034
G1 X114.26 Y134.155 E.29034
G1 X110 Y134.528 E.29041
G1 X105.741 Y134.155 E.29034
G1 X101.612 Y133.048 E.29035
G1 X97.736 Y131.241 E.29039
G1 X94.235 Y128.789 E.29031
G1 X91.211 Y125.766 E.29041
G1 X88.759 Y122.263 E.29036
G1 X86.952 Y118.389 E.29035
G1 X85.846 Y114.259 E.29034
G1 X85.473 Y109.999 E.29041
G1 X85.846 Y105.741 E.29034
G1 X86.952 Y101.611 E.29034
G1 X88.759 Y97.736 E.2904
G1 X91.211 Y94.234 E.29031
G1 X94.235 Y91.211 E.29041
G1 X97.736 Y88.759 E.29031
G1 X101.612 Y86.952 E.29039
G1 X105.741 Y85.845 E.29035
G1 X110 Y85.472 E.29034
G1 X114.26 Y85.845 E.29041
G1 X118.389 Y86.952 E.29034
G1 X122.264 Y88.759 E.29034
G1 X125.766 Y91.211 E.29035
G1 X128.789 Y94.234 E.29037
G1 X131.242 Y97.736 E.29034
G1 X133.049 Y101.611 E.29039
G1 X134.155 Y105.741 E.29034
G1 X134.522 Y109.94 E.28626
G1 E-1.08
;WIPE_START
G1 X134.353 Y111.933 E-.12
;WIPE_END
G1 X127.937 Y111.918 Z.7 F30000
G1 Z.3
G1 E1.2 F1800
;TYPE:Inner wall
G1 F2400
G1 X127.624 Y112.247 E.03089
G1 X127.124 Y112.6 E.04156
G1 X126.568 Y112.849 E.04135
G1 X125.969 Y112.985 E.04168
G1 X125.359 Y113.001 E.04145
G1 X124.632 Y112.858 E.05034
G1 X124.054 Y112.607 E.04281
G1 X123.552 Y112.254 E.04165
G1 X123.053 Y111.706 E.05032
G1 X122.738 Y111.16 E.04279
G1 X122.546 Y110.581 E.0415
G1 X122.469 Y110.04 E.03704
G3 X122.799 Y108.496 I3.19 J-.126 E.10839
G3 X123.358 Y107.716 I3.644 J2.021 E.06531
G3 X124.67 Y106.911 I2.416 J2.467 E.10544
G1 X125.329 Y106.789 E.04551
G1 X125.96 Y106.8 E.04281
G1 X126.568 Y106.936 E.04238
G1 X127.141 Y107.196 E.0427
G1 X127.598 Y107.517 E.03791
G1 X128.045 Y107.981 E.04374
G1 X128.372 Y108.5 E.04168
G1 X128.588 Y109.065 E.04109
G1 X128.689 Y109.596 E.03669
G1 X128.692 Y110.115 E.03523
G1 X128.588 Y110.72 E.0417
G1 X128.371 Y111.286 E.04117
G1 X128.043 Y111.806 E.0418
G1 X127.978 Y111.874 E.00636
G1 X127.832 Y111.122 F30000
;TYPE:Outer wall
G1 F2400
G1 X127.546 Y111.54 E.03441
G1 X127.19 Y111.888 E.03381
G1 X126.767 Y112.164 E.03425
G1 X126.302 Y112.351 E.03406
G1 X125.806 Y112.445 E.03429
G1 X125.298 Y112.438 E.03449
G1 X124.754 Y112.316 E.03789
G1 X124.291 Y112.104 E.03458
G1 X123.883 Y111.808 E.0342
G1 X123.474 Y111.344 E.04206
G1 X123.228 Y110.899 E.03452
G1 X123.077 Y110.419 E.03414
G1 X123.028 Y109.857 E.03833
G1 X123.038 Y109.612 E.01663
G1 X123.141 Y109.123 E.03394
G1 X123.342 Y108.655 E.03457
G1 X123.664 Y108.198 E.03799
G1 X124.037 Y107.851 E.03458
G1 X124.401 Y107.621 E.02928
G1 X124.874 Y107.432 E.03457
G1 X125.424 Y107.337 E.03795
G1 X125.933 Y107.355 E.03455
G1 X126.355 Y107.449 E.02941
G1 X126.821 Y107.65 E.03448
G1 X127.278 Y107.972 E.03791
G3 X128.043 Y109.175 I-1.949 J2.084 E.09786
G1 X128.136 Y109.668 E.03412
G1 X128.131 Y110.169 E.03402
G1 X128.027 Y110.662 E.03423
G1 X127.855 Y111.067 E.02986
G1 E-1.08
;WIPE_START
G1 X127.546 Y111.54 E-.03393
G1 X127.19 Y111.888 E-.02987
G1 X126.767 Y112.164 E-.03026
G1 X126.367 Y112.326 E-.02594
;WIPE_END
G1 X120.142 Y116.743 Z.7 F30000
G1 X115.861 Y119.781 Z.7
G1 Z.3
G1 E1.2 F1800
;TYPE:Inner wall
G1 F2400
G1 X116.017 Y120.194 E.03002
G1 X116.097 Y120.679 E.03339
G1 X116.077 Y121.191 E.03478
G1 X115.956 Y121.701 E.03559
G1 X115.702 Y122.207 E.03842
G1 X115.395 Y122.593 E.03351
G1 X115.02 Y122.911 E.03341
G1 X114.592 Y123.149 E.03324
G1 X114.12 Y123.302 E.03371
G1 X113.526 Y123.353 E.04051
G1 X113.141 Y123.318 E.02626
G1 X112.665 Y123.182 E.03356
G1 X112.229 Y122.959 E.03328
G1 X111.84 Y122.651 E.0337
G1 X111.522 Y122.276 E.03339
G1 X111.283 Y121.845 E.03342
G1 X111.134 Y121.381 E.03311
G1 X111.075 Y120.885 E.03392
G1 X111.116 Y120.396 E.03337
G1 X111.279 Y119.866 E.03766
G1 X111.563 Y119.365 E.03908
G1 X111.932 Y118.954 E.03753
G1 X112.387 Y118.634 E.03776
G1 X112.869 Y118.434 E.03543
G1 X113.281 Y118.349 E.02856
M73 P2 R9
G1 X113.824 Y118.339 E.03689
M73 P2 R9
G1 X114.352 Y118.448 E.03664
G1 X114.816 Y118.649 E.0343
G1 X115.246 Y118.954 E.03583
G1 X115.584 Y119.315 E.03359
G1 X115.839 Y119.725 E.03279
G1 X115.131 Y119.646 F30000
;TYPE:Outer wall
G1 F2400
G1 X115.33 Y119.945 E.02437
G3 X115.535 Y121.07 I-1.966 J.94 E.0786
G1 X115.425 Y121.531 E.03216
G3 X114.039 Y122.752 I-1.893 J-.751 E.13024
G1 X113.554 Y122.798 E.03307
G3 X111.763 Y120.14 I.028 J-1.951 E.25542
G1 X112.047 Y119.639 E.03908
G1 X112.367 Y119.312 E.03113
G3 X113.376 Y118.896 I1.336 J1.81 E.07485
G1 X113.863 Y118.908 E.0331
G1 X114.228 Y118.996 E.02549
G1 X114.694 Y119.234 E.03551
G1 X115.087 Y119.58 E.03554
G1 X115.097 Y119.597 E.00132
G1 E-1.08
;WIPE_START
G1 X115.33 Y119.945 E-.02513
G1 X115.472 Y120.302 E-.02308
G1 X115.541 Y120.679 E-.02301
G1 X115.535 Y121.07 E-.02345
G1 X115.437 Y121.481 E-.02533
;WIPE_END
G1 X108.852 Y117.621 Z.7 F30000
G1 X96.152 Y110.177 Z.7
G1 Z.3
G1 E1.2 F1800
;TYPE:Inner wall
G1 F2400
G1 X96.088 Y109.882 E.02055
G1 X96.079 Y109.387 E.03356
G1 X96.168 Y108.9 E.03368
G3 X97.362 Y107.396 I2.428 J.703 E.13375
G1 X97.817 Y107.199 E.03364
G1 X98.299 Y107.095 E.0335
G1 X98.79 Y107.088 E.03335
G1 X99.274 Y107.176 E.03338
G1 X99.731 Y107.356 E.0334
G1 X100.146 Y107.622 E.0335
G1 X100.503 Y107.967 E.03368
G1 X100.782 Y108.371 E.03336
G1 X100.979 Y108.825 E.03361
G1 X101.082 Y109.306 E.03338
G1 X101.09 Y109.801 E.03365
G1 X101.001 Y110.286 E.03347
G1 X100.822 Y110.739 E.03307
G1 X100.555 Y111.154 E.03349
G1 X100.211 Y111.51 E.03368
G1 X99.806 Y111.789 E.03336
G1 X99.353 Y111.986 E.03356
G1 X98.871 Y112.09 E.03344
G1 X98.38 Y112.097 E.03335
G1 X97.895 Y112.009 E.03347
G1 X97.436 Y111.828 E.03352
G1 X97.024 Y111.563 E.03333
G1 X96.667 Y111.218 E.03368
G1 X96.388 Y110.814 E.03335
G1 X96.192 Y110.361 E.03352
G1 X96.165 Y110.236 E.0087
G1 X96.873 Y110.538 F30000
;TYPE:Outer wall
G1 F2400
G1 X96.731 Y110.227 E.02322
G1 X96.636 Y109.716 E.03526
G3 X97.601 Y107.898 I1.936 J-.138 E.14735
G3 X96.9 Y110.591 I.979 J1.693 E.62408
G1 E-1.08
;WIPE_START
G1 X96.731 Y110.227 E-.02411
G1 X96.636 Y109.716 E-.03115
G1 X96.629 Y109.469 E-.01487
G1 X96.691 Y109.089 E-.0231
G1 X96.826 Y108.731 E-.02294
G1 X96.859 Y108.676 E-.00384
;WIPE_END
G1 X103.696 Y105.283 Z.7 F30000
G1 X112.853 Y100.739 Z.7
G1 Z.3
G1 E1.2 F1800
;TYPE:Inner wall
G1 F2400
G1 X112.443 Y100.577 E.02994
G1 X112.026 Y100.309 E.03369
G1 X111.672 Y99.967 E.03343
G1 X111.392 Y99.562 E.03344
G1 X111.195 Y99.108 E.03356
G3 X111.074 Y98.272 I2.485 J-.786 E.05766
G1 X111.149 Y97.727 E.03738
G1 X111.321 Y97.25 E.03438
G1 X111.616 Y96.783 E.03754
G1 X111.964 Y96.423 E.034
G1 X112.368 Y96.144 E.03336
G1 X112.821 Y95.947 E.03353
G1 X113.3 Y95.844 E.03332
G1 X113.794 Y95.835 E.03355
G1 X114.281 Y95.923 E.03361
G3 X115.983 Y97.572 I-.768 J2.495 E.16699
G1 X116.086 Y98.051 E.03332
G1 X116.095 Y98.545 E.0335
G1 X116.006 Y99.032 E.03362
G1 X115.781 Y99.561 E.0391
G3 X114.809 Y100.538 I-2.382 J-1.399 E.09455
G1 X114.36 Y100.733 E.03327
G1 X113.875 Y100.838 E.03366
G1 X113.384 Y100.845 E.03338
G1 X112.91 Y100.759 E.03274
G1 X113.441 Y100.292 F30000
;TYPE:Outer wall
G1 F2400
G1 X113.089 Y100.228 E.02436
G3 X111.63 Y98.262 I.499 J-1.894 E.17956
G3 X115.483 Y98.843 I1.957 J.087 E.44605
G1 X115.304 Y99.277 E.03188
G3 X113.501 Y100.29 I-1.717 J-.943 E.14797
G1 E-1.08
;WIPE_START
G1 X113.089 Y100.228 E-.02504
G1 X112.728 Y100.1 E-.02295
G1 X112.399 Y99.898 E-.02315
G1 X112.119 Y99.636 E-.02304
G1 X111.894 Y99.324 E-.02304
G1 X111.875 Y99.282 E-.00277
;WIPE_END
G1 X118.181 Y94.982 Z.7 F30000
G1 X124.114 Y90.936 Z.7
G1 Z.3
G1 E1.2 F1800
;TYPE:Bottom surface
;WIDTH:0.622959
G1 F3600
G1 X128.044 Y94.866 E.37949
G1 X129.892 Y97.503 E.21982
G1 X122.498 Y90.11 E.71387
G1 X121.776 Y89.604 E.06021
G1 X120.701 Y89.103 E.08093
G1 X130.898 Y99.3 E.98454
G1 X131.588 Y100.78 E.1115
G1 X119.221 Y88.413 E1.19413
G1 X118.055 Y87.869 E.08782
G1 X117.826 Y87.807 E.01622
G1 X132.193 Y102.175 E1.38724
G1 X132.482 Y103.254 E.07628
G1 X116.747 Y87.518 E1.51937
M73 P3 R9
G1 X115.668 Y87.229 E.07628
M73 P3 R9
G1 X132.772 Y104.333 E1.65149
G1 X133.061 Y105.412 E.07628
G1 X114.588 Y86.94 E1.78362
G2 X113.624 Y86.765 I-.976 J2.646 E.06724
G1 X133.235 Y106.376 E1.89354
G1 X133.311 Y107.242 E.05932
G1 X112.758 Y86.69 E1.98443
G1 X111.893 Y86.614 E.05933
G1 X133.386 Y108.107 E2.07531
G1 X133.462 Y108.973 E.05932
G1 X111.027 Y86.538 E2.1662
G1 X110.161 Y86.462 E.05933
G1 X133.537 Y109.838 E2.25708
G1 X133.551 Y110 E.01105
G1 X133.5 Y110.591 E.04052
G1 X109.409 Y86.5 E2.3261
G1 X108.683 Y86.564 E.04978
G1 X133.436 Y111.317 E2.39011
G1 X133.373 Y112.044 E.04979
G1 X107.956 Y86.627 E2.45413
M73 P4 R9
G1 X107.23 Y86.691 E.04978
M73 P4 R9
G1 X133.309 Y112.77 E2.51814
G1 X133.246 Y113.497 E.04979
G1 X129.057 Y109.308 E.40444
G1 X129.105 Y109.559 E.01741
G1 X129.105 Y110.145 E.04006
G1 X133.164 Y114.204 E.39191
G1 X132.997 Y114.827 E.04404
G1 X128.99 Y110.821 E.38687
G1 X128.776 Y111.396 E.04193
G1 X132.83 Y115.45 E.39145
G1 X132.663 Y116.073 E.04404
G1 X128.485 Y111.895 E.40343
G3 X128.125 Y112.326 I-1.415 J-.816 E.03848
G1 X132.496 Y116.696 E.42201
G1 X132.329 Y117.319 E.04404
G1 X127.716 Y112.706 E.44542
G3 X127.233 Y113.013 I-1.81 J-2.314 E.03913
G1 X132.162 Y117.942 E.47593
G1 X132.132 Y118.055 E.00796
G1 X131.926 Y118.496 E.03325
G1 X126.679 Y113.249 E.50664
G3 X126.032 Y113.392 I-.98 J-2.896 E.04532
G1 X131.675 Y119.035 E.54484
G1 X131.423 Y119.574 E.04058
G1 X124.943 Y113.093 E.6257
G1 E-1.08 F2400
;WIPE_START
G1 F3600
G1 X126.357 Y114.508 E-.12
;WIPE_END
G1 X126.496 Y106.876 Z.7 F30000
G1 X126.498 Y106.749 Z.7
G1 Z.3
G1 E1.2 F1800
G1 F3600
G1 X106.504 Y86.754 E1.93061
G1 X105.911 Y86.806 E.04063
G1 X105.796 Y86.837 E.00809
G1 X114.536 Y95.577 E.84388
G1 X114.835 Y95.685 E.02171
G1 X115.31 Y95.965 E.03763
G3 X116.365 Y97.406 I-1.766 J2.4 E.12384
G1 X125.331 Y106.372 E.86572
G1 X124.661 Y106.492 E.04647
G1 X116.518 Y98.349 E.78623
G3 X116.44 Y99.032 I-3.514 J-.055 E.04701
G1 X116.433 Y99.053 E.00156
G1 X124.084 Y106.705 E.73876
G1 X123.925 Y106.771 E.01176
G1 X123.58 Y106.991 E.02792
M73 P5 R9
G1 X116.218 Y99.629 E.71087
M73 P5 R9
G1 X115.968 Y100.057 E.03387
G1 X115.915 Y100.116 E.00539
G1 X123.151 Y107.351 E.69861
G2 X122.781 Y107.771 I.792 J1.071 E.0385
G1 X115.538 Y100.528 E.69933
G1 X115.084 Y100.864 E.03856
G1 X122.462 Y108.243 E.71245
G1 X122.227 Y108.797 E.04112
G1 X114.537 Y101.108 E.74247
G1 X114.053 Y101.237 E.03422
G1 X113.887 Y101.247 E.01137
G1 X122.315 Y109.675 E.81379
G1 E-1.08 F2400
;WIPE_START
G1 F3600
G1 X120.901 Y108.261 E-.12
;WIPE_END
G1 X117.168 Y101.604 Z.7 F30000
G1 X113.843 Y95.674 Z.7
G1 Z.3
G1 E1.2 F1800
G1 F3600
G1 X105.173 Y87.004 E.83714
G1 X104.55 Y87.171 E.04404
G1 X112.882 Y95.502 E.80446
G2 X112.303 Y95.713 I.562 J2.442 E.04218
G1 X103.927 Y87.338 E.80871
G1 X103.304 Y87.505 E.04404
G1 X111.816 Y96.017 E.82188
G2 X111.408 Y96.399 I.802 J1.265 E.03838
G1 X102.681 Y87.672 E.84266
G1 X102.058 Y87.839 E.04404
G1 X111.074 Y96.855 E.87055
G2 X110.827 Y97.397 I1.251 J.898 E.04097
G1 X101.504 Y88.075 E.90015
G1 X100.966 Y88.326 E.04058
G1 X110.909 Y98.27 E.96015
G1 E-1.08 F2400
;WIPE_START
G1 F3600
G1 X109.495 Y96.856 E-.12
;WIPE_END
G1 X114.729 Y102.411 Z.7 F30000
G1 X122.362 Y110.513 Z.7
G1 Z.3
G1 E1.2 F1800
G1 F3600
G1 X113.061 Y101.211 E.89809
G1 X112.873 Y101.185 E.01295
G1 X112.348 Y100.998 E.03804
G1 X111.85 Y100.704 E.03951
G1 X111.421 Y100.317 E.03943
G1 X111.075 Y99.853 E.0395
G1 X110.828 Y99.332 E.03941
G1 X110.709 Y98.86 E.03324
G1 X100.427 Y88.577 E.99284
M73 P6 R9
G1 X99.888 Y88.828 E.04058
M73 P6 R9
G1 X122.327 Y111.267 E2.16661
G1 X122.659 Y111.878 E.04748
G2 X123.244 Y112.542 I4.021 J-2.955 E.06053
G1 X123.783 Y112.936 E.04558
G1 X124.175 Y113.116 E.02944
G1 X131.172 Y120.112 E.67557
G1 X130.921 Y120.651 E.04058
G1 X99.349 Y89.08 E3.04842
G1 X98.811 Y89.331 E.04058
G1 X130.67 Y121.19 E3.07618
G1 X130.418 Y121.728 E.04058
G1 X98.272 Y89.582 E3.10393
G1 X97.801 Y89.901 E.03884
G1 X130.099 Y122.199 E3.11863
G1 X129.774 Y122.664 E.03873
G1 X97.336 Y90.226 E3.13208
G1 X96.871 Y90.551 E.03873
G1 X129.449 Y123.129 E3.14553
M73 P7 R9
G1 X129.123 Y123.593 E.03873
M73 P7 R9
G1 X96.407 Y90.877 E3.15898
G1 X95.942 Y91.202 E.03873
G1 X128.798 Y124.058 E3.17242
G1 X128.473 Y124.522 E.03873
G1 X95.478 Y91.527 E3.18587
G1 X95.013 Y91.853 E.03873
G1 X128.147 Y124.987 E3.19932
G3 X127.775 Y125.405 I-1.372 J-.848 E.03839
G1 X94.595 Y92.225 E3.2037
G1 X94.2 Y92.62 E.03814
G1 X127.38 Y125.8 E3.2037
G1 X126.985 Y126.195 E.03814
G1 X93.805 Y93.015 E3.20371
M73 P8 R9
G1 X93.41 Y93.41 E.03814
M73 P8 R9
G1 X126.59 Y126.59 E3.20371
G1 X126.195 Y126.985 E.03814
G1 X93.016 Y93.805 E3.20372
G1 X92.621 Y94.2 E.03814
G1 X125.8 Y127.38 E3.20372
G1 X125.406 Y127.775 E.03814
G1 X92.226 Y94.595 E3.20373
G2 X91.853 Y95.013 I.998 J1.265 E.03839
G1 X124.988 Y128.147 E3.19937
G1 X124.523 Y128.473 E.03873
G1 X116.482 Y120.432 E.7764
G1 X116.51 Y120.571 E.0097
