; HEADER_BLOCK_START
; generated by Creality_Print V6.1.0.2041 on 2025-04-23 at 08:57:09
; total layer number: 17
; filament_density: 1.24
; filament_diameter: 1.75
; max_z_height: 5.10
; HEADER_BLOCK_END

; MINX = 101.00
; MINY = 98.50
; MINZ = 0.00
; MAXX = 119.00
; MAXY = 121.50
; MAXZ = 5.00

; THUMBNAIL_BLOCK_START

;
; THUMBNAIL_BLOCK_END

; THUMBNAIL_BLOCK_START

;
; THUMBNAIL_BLOCK_END

; external perimeters extrusion width = 0.62mm
; perimeters extrusion width = 0.62mm
; infill extrusion width = 0.62mm
; solid infill extrusion width = 0.62mm
; top infill extrusion width = 0.62mm
; support material extrusion width = 0.62mm
; first layer extrusion width = 0.62mm

; EXECUTABLE_BLOCK_START
EXCLUDE_OBJECT_DEFINE NAME=Place_Connector20.stl_id_0_copy_0 CENTER=110,110 POLYGON=[[117.574,98.502],[117.647,98.507],[117.72,98.516],[117.793,98.529],[117.864,98.545],[117.935,98.565],[118.074,98.614],[118.207,98.677],[118.271,98.713],[118.333,98.753],[118.394,98.795],[118.452,98.841],[118.561,98.939],[118.66,99.048],[118.705,99.106],[118.747,99.167],[118.787,99.229],[118.823,99.293],[118.886,99.426],[118.935,99.565],[118.955,99.636],[118.971,99.707],[118.984,99.78],[118.993,99.853],[118.998,99.926],[119,100],[119,120],[118.993,120.147],[118.984,120.22],[118.955,120.364],[118.912,120.505],[118.886,120.574],[118.823,120.707],[118.787,120.771],[118.705,120.894],[118.66,120.952],[118.561,121.061],[118.452,121.16],[118.394,121.205],[118.333,121.247],[118.271,121.287],[118.207,121.323],[118.074,121.386],[117.935,121.435],[117.864,121.455],[117.72,121.484],[117.647,121.493],[117.5,121.5],[102.5,121.5],[102.353,121.493],[102.28,121.484],[102.136,121.455],[101.995,121.412],[101.926,121.386],[101.793,121.323],[101.729,121.287],[101.606,121.205],[101.548,121.16],[101.439,121.061],[101.34,120.952],[101.295,120.894],[101.253,120.833],[101.213,120.771],[101.177,120.707],[101.114,120.574],[101.088,120.505],[101.045,120.364],[101.016,120.22],[101.007,120.147],[101,120],[101,100],[101.007,99.853],[101.016,99.78],[101.045,99.636],[101.088,99.495],[101.114,99.426],[101.177,99.293],[101.213,99.229],[101.295,99.106],[101.34,99.048],[101.439,98.939],[101.548,98.841],[101.606,98.795],[101.667,98.753],[101.729,98.713],[101.793,98.677],[101.926,98.614],[102.065,98.565],[102.136,98.545],[102.28,98.516],[102.353,98.507],[102.426,98.502],[102.5,98.5],[117.5,98.5],[117.574,98.502]]
M73 P0 R3
M106 S0
M106 P2 S0
;TYPE:Custom
M141 S35;set chamber_temperature
START_PRINT EXTRUDER_TEMP=210 BED_TEMP=50
T0
M204 S2000
M104 S210
G1 Z3 F600
M83
G92 E0
G1 Z1 F600
G90
G21
M83 ; use relative distances for extrusion
SET_PRESSURE_ADVANCE ADVANCE=0.026; Override pressure advance value
G1 E-1.2 F2400
M106 S0
;LAYER_CHANGE
;Z:0.3
;HEIGHT:0.3
;BEFORE_LAYER_CHANGE
;0.3
G92 E0

;AFTER_LAYER_CHANGE
;0.3
;_SET_FAN_SPEED_CHANGING_LAYER
SET_VELOCITY_LIMIT ACCEL=500 ACCEL_TO_DECEL=250
SET_VELOCITY_LIMIT SQUARE_CORNER_VELOCITY=12
EXCLUDE_OBJECT_START NAME=Place_Connector20.stl_id_0_copy_0
G1 Z.4 F30000
G1 X108.051 Y119.725
G1 Z.3
G1 E1.2 F1800
;TYPE:Inner wall
;WIDTH:0.62
G1 F2400
G1 X108.118 Y120 E.01925
G1 X108.071 Y120.236 E.01632
G1 X107.895 Y120.48 E.02043
G1 X107.621 Y120.606 E.02044
G1 X107.32 Y120.594 E.02048
M73 P1 R3
G1 X107.063 Y120.437 E.02044
M73 P1 R3
G1 X106.906 Y120.18 E.02044
G1 X106.894 Y119.881 E.02033
G1 X107.02 Y119.606 E.02052
G1 X107.264 Y119.429 E.0205
G1 X107.56 Y119.382 E.02034
G1 X107.843 Y119.487 E.02051
G1 X108.019 Y119.676 E.01752
G1 X107.626 Y118.83 F30000
;TYPE:Outer wall
G1 F2400
G1 X108.056 Y118.96 E.03047
G1 X108.412 Y119.252 E.03127
G1 X108.628 Y119.658 E.03122
G1 X108.673 Y120.115 E.03122
G1 X108.54 Y120.556 E.03129
G1 X108.248 Y120.912 E.03121
G1 X107.842 Y121.128 E.03125
G1 X107.385 Y121.173 E.03121
G1 X106.944 Y121.04 E.03129
G1 X106.588 Y120.748 E.03121
G1 X106.372 Y120.342 E.03125
G1 X106.327 Y119.885 E.03122
G1 X106.46 Y119.444 E.03129
G1 X106.752 Y119.089 E.03117
G1 X107.158 Y118.872 E.03127
G1 X107.567 Y118.831 E.02793
G1 X107.906 Y120.197 F30000
;TYPE:Bottom surface
;WIDTH:0.731124
G1 F3600
G1 X107.307 Y119.598 E.06908
G1 X107.485 Y120.338 F30000
;TYPE:Gap infill
;WIDTH:0.212535
M73 P1 R2
G1 F2400
M73 P1 R2
G3 X107.162 Y119.985 I.713 J-.978 E.00872
G1 E-1.08
;WIPE_START
G1 X107.297 Y120.168 E-.05669
G1 X107.485 Y120.338 E-.06331
;WIPE_END
G1 X103.064 Y120.245 Z.7 F30000
G1 Z.3
G1 E1.2 F1800
;TYPE:Inner wall
;WIDTH:0.62
G1 F2400
G1 X102.895 Y120.48 E.01966
G1 X102.621 Y120.606 E.02044
G1 X102.32 Y120.594 E.02048
G1 X102.063 Y120.437 E.02044
G1 X101.906 Y120.18 E.02044
G1 X101.894 Y119.881 E.02033
G1 X102.02 Y119.606 E.02052
G1 X102.264 Y119.429 E.0205
G1 X102.56 Y119.382 E.02034
G1 X102.843 Y119.487 E.02051
G1 X103.047 Y119.706 E.02033
G1 X103.118 Y120 E.02051
G1 X103.08 Y120.188 E.01302
G1 X103.42 Y119.268 F30000
;TYPE:Outer wall
G1 F2400
G1 X103.628 Y119.658 E.03001
G1 X103.673 Y120.115 E.03122
G1 X103.54 Y120.556 E.03129
G1 X103.248 Y120.912 E.03121
G1 X102.842 Y121.128 E.03125
G1 X102.385 Y121.173 E.03121
G1 X101.944 Y121.04 E.03129
G1 X101.588 Y120.748 E.03121
G1 X101.372 Y120.342 E.03125
G1 X101.327 Y119.885 E.03122
G1 X101.46 Y119.444 E.03129
G1 X101.752 Y119.089 E.03117
G1 X102.158 Y118.872 E.03127
G1 X102.615 Y118.827 E.03122
G1 X103.056 Y118.96 E.03126
G1 X103.379 Y119.225 E.0284
G1 X102.906 Y120.197 F30000
;TYPE:Bottom surface
;WIDTH:0.731124
G1 F3600
G1 X102.307 Y119.598 E.06908
G1 X102.485 Y120.338 F30000
;TYPE:Gap infill
;WIDTH:0.212537
G1 F2400
G3 X102.162 Y119.985 I.713 J-.978 E.00872
G1 E-1.08
;WIPE_START
M73 P2 R2
G1 X102.297 Y120.168 E-.05669
M73 P2 R2
G1 X102.485 Y120.338 E-.06331
;WIPE_END
G1 X102.961 Y115.388 Z.7 F30000
G1 Z.3
G1 E1.2 F1800
;TYPE:Inner wall
;WIDTH:0.62
G1 F2400
G1 X102.895 Y115.48 E.00771
G1 X102.621 Y115.606 E.02044
G1 X102.32 Y115.594 E.02048
G1 X102.063 Y115.437 E.02044
G1 X101.906 Y115.18 E.02044
G1 X101.894 Y114.881 E.02033
G1 X102.02 Y114.606 E.02052
G1 X102.264 Y114.429 E.0205
G1 X102.56 Y114.382 E.02034
G1 X102.843 Y114.487 E.02051
G1 X103.047 Y114.706 E.02033
G1 X103.118 Y115 E.02051
G1 X103.071 Y115.236 E.01632
G1 X102.996 Y115.339 E.00865
G1 X103.63 Y114.677 F30000
;TYPE:Outer wall
G1 F2400
G1 X103.673 Y115.115 E.02989
G1 X103.54 Y115.556 E.03129
G1 X103.248 Y115.912 E.03121
G1 X102.842 Y116.128 E.03125
G1 X102.385 Y116.173 E.03122
G1 X101.944 Y116.04 E.03129
G1 X101.588 Y115.748 E.03121
G1 X101.372 Y115.342 E.03125
G1 X101.327 Y114.885 E.03122
G1 X101.46 Y114.444 E.03129
G1 X101.752 Y114.089 E.03117
G1 X102.158 Y113.872 E.03128
G1 X102.615 Y113.827 E.03122
G1 X103.056 Y113.96 E.03126
G1 X103.412 Y114.252 E.03127
G1 X103.609 Y114.622 E.02847
G1 X102.906 Y115.197 F30000
;TYPE:Bottom surface
;WIDTH:0.731124
G1 F3600
G1 X102.307 Y114.598 E.06908
G1 X102.485 Y115.338 F30000
;TYPE:Gap infill
;WIDTH:0.212534
G1 F2400
G3 X102.162 Y114.985 I.713 J-.978 E.00872
G1 E-1.08
;WIPE_START
G1 X102.297 Y115.168 E-.05669
G1 X102.485 Y115.338 E-.06331
;WIPE_END
G1 X107.28 Y114.427 Z.7 F30000
G1 Z.3
G1 E1.2 F1800
;TYPE:Inner wall
;WIDTH:0.62
G1 F2400
G1 X107.56 Y114.382 E.01925
G1 X107.843 Y114.487 E.02051
G1 X108.047 Y114.706 E.02033
G1 X108.118 Y115 E.02051
G1 X108.071 Y115.236 E.01632
G1 X107.895 Y115.48 E.02043
G1 X107.621 Y115.606 E.02044
G1 X107.32 Y115.594 E.02048
G1 X107.063 Y115.437 E.02044
G1 X106.906 Y115.18 E.02044
G1 X106.894 Y114.881 E.02033
G1 X107.02 Y114.606 E.02052
G1 X107.229 Y114.455 E.01751
G1 X106.327 Y114.89 F30000
;TYPE:Outer wall
G1 F2400
G1 X106.327 Y114.885 E.00037
G1 X106.46 Y114.444 E.03129
G1 X106.752 Y114.089 E.03116
G1 X107.158 Y113.872 E.03128
G1 X107.615 Y113.827 E.03122
G1 X108.056 Y113.96 E.03126
G1 X108.412 Y114.252 E.03127
G1 X108.628 Y114.658 E.03122
G1 X108.673 Y115.115 E.03122
M73 P3 R2
G1 X108.54 Y115.556 E.03129
M73 P3 R2
G1 X108.248 Y115.912 E.03121
G1 X107.842 Y116.128 E.03125
G1 X107.385 Y116.173 E.03122
G1 X106.944 Y116.04 E.03129
G1 X106.588 Y115.748 E.03121
G1 X106.372 Y115.342 E.03125
G1 X106.333 Y114.95 E.02677
G1 X107.906 Y115.197 F30000
;TYPE:Bottom surface
;WIDTH:0.731124
G1 F3600
G1 X107.307 Y114.598 E.06908
G1 X107.485 Y115.338 F30000
;TYPE:Gap infill
;WIDTH:0.212535
G1 F2400
G3 X107.162 Y114.985 I.713 J-.978 E.00872
G1 E-1.08
;WIPE_START
G1 X107.297 Y115.168 E-.05669
G1 X107.485 Y115.338 E-.06331
;WIPE_END
G1 X112.603 Y115.605 Z.7 F30000
G1 Z.3
G1 E1.2 F1800
;TYPE:Inner wall
;WIDTH:0.62
G1 F2400
G1 X112.32 Y115.594 E.01925
G1 X112.063 Y115.437 E.02044
G1 X111.906 Y115.18 E.02044
G1 X111.894 Y114.881 E.02033
G1 X112.02 Y114.606 E.02052
G1 X112.264 Y114.429 E.0205
G1 X112.56 Y114.382 E.02034
G1 X112.843 Y114.487 E.02051
G1 X113.047 Y114.706 E.02033
G1 X113.118 Y115 E.02051
G1 X113.071 Y115.236 E.01632
G1 X112.895 Y115.48 E.02043
G1 X112.659 Y115.588 E.0176
G1 X113.541 Y115.551 F30000
;TYPE:Outer wall
G1 F2400
G1 X113.54 Y115.556 E.00036
G1 X113.248 Y115.912 E.03121
G1 X112.842 Y116.128 E.03125
G1 X112.385 Y116.173 E.03122
G1 X111.944 Y116.04 E.03129
G1 X111.588 Y115.748 E.03121
G1 X111.372 Y115.342 E.03125
G1 X111.327 Y114.885 E.03122
G1 X111.46 Y114.444 E.03129
G1 X111.752 Y114.089 E.03116
G1 X112.158 Y113.872 E.03128
G1 X112.615 Y113.827 E.03122
G1 X113.056 Y113.96 E.03126
G1 X113.412 Y114.252 E.03127
G1 X113.628 Y114.658 E.03122
G1 X113.673 Y115.115 E.03122
G1 X113.559 Y115.494 E.02686
G1 X112.906 Y115.197 F30000
;TYPE:Bottom surface
;WIDTH:0.731124
G1 F3600
G1 X112.307 Y114.598 E.06908
G1 X112.485 Y115.338 F30000
;TYPE:Gap infill
;WIDTH:0.212534
G1 F2400
G3 X112.162 Y114.985 I.713 J-.978 E.00872
G1 E-1.08
;WIPE_START
G1 X112.297 Y115.168 E-.05668
G1 X112.485 Y115.338 E-.06332
;WIPE_END
G1 X113.051 Y119.725 Z.7 F30000
G1 Z.3
G1 E1.2 F1800
;TYPE:Inner wall
;WIDTH:0.62
G1 F2400
G1 X113.118 Y120 E.01925
G1 X113.071 Y120.236 E.01632
G1 X112.895 Y120.48 E.02043
G1 X112.621 Y120.606 E.02044
M73 P4 R2
G1 X112.32 Y120.594 E.02048
M73 P4 R2
G1 X112.063 Y120.437 E.02044
G1 X111.906 Y120.18 E.02044
G1 X111.894 Y119.881 E.02033
G1 X112.02 Y119.606 E.02052
G1 X112.264 Y119.429 E.0205
G1 X112.56 Y119.382 E.02034
G1 X112.843 Y119.487 E.02051
G1 X113.019 Y119.676 E.01752
G1 X112.628 Y118.83 F30000
;TYPE:Outer wall
G1 F2400
G1 X113.056 Y118.96 E.03036
G1 X113.412 Y119.252 E.03127
G1 X113.628 Y119.658 E.03122
G1 X113.673 Y120.115 E.03122
G1 X113.54 Y120.556 E.03129
G1 X113.248 Y120.912 E.03121
G1 X112.842 Y121.128 E.03125
G1 X112.385 Y121.173 E.03121
G1 X111.944 Y121.04 E.03129
G1 X111.588 Y120.748 E.03121
G1 X111.372 Y120.342 E.03125
G1 X111.327 Y119.885 E.03122
G1 X111.46 Y119.444 E.03129
G1 X111.752 Y119.089 E.03117
G1 X112.158 Y118.872 E.03127
G1 X112.569 Y118.831 E.02804
G1 X112.906 Y120.197 F30000
;TYPE:Bottom surface
;WIDTH:0.731124
G1 F3600
G1 X112.307 Y119.598 E.06908
G1 X112.485 Y120.338 F30000
;TYPE:Gap infill
;WIDTH:0.212533
G1 F2400
G3 X112.162 Y119.985 I.713 J-.978 E.00872
G1 E-1.08
;WIPE_START
G1 X112.297 Y120.168 E-.05669
G1 X112.485 Y120.338 E-.06331
;WIPE_END
G1 X117.652 Y119.416 Z.7 F30000
G1 Z.3
G1 E1.2 F1800
;TYPE:Inner wall
;WIDTH:0.62
G1 F2400
G1 X117.843 Y119.487 E.01388
G1 X118.047 Y119.706 E.02033
G1 X118.118 Y120 E.02051
G1 X118.071 Y120.236 E.01632
G1 X117.895 Y120.48 E.02044
G1 X117.621 Y120.606 E.02044
G1 X117.32 Y120.594 E.02048
G1 X117.063 Y120.437 E.02044
G1 X116.906 Y120.18 E.02044
G1 X116.894 Y119.881 E.02033
G1 X117.02 Y119.606 E.02052
G1 X117.264 Y119.429 E.0205
G1 X117.56 Y119.382 E.02034
G1 X117.595 Y119.395 E.00256
G1 X116.748 Y119.094 F30000
;TYPE:Outer wall
G1 F2400
G1 X116.752 Y119.089 E.00038
G1 X117.158 Y118.872 E.03127
G1 X117.615 Y118.827 E.03122
G1 X118.056 Y118.96 E.03126
G1 X118.412 Y119.252 E.03127
G1 X118.628 Y119.658 E.03122
G1 X118.673 Y120.115 E.03122
G1 X118.54 Y120.556 E.03129
G1 X118.248 Y120.912 E.03121
G1 X117.842 Y121.128 E.03125
G1 X117.385 Y121.173 E.03121
G1 X116.944 Y121.04 E.03129
G1 X116.588 Y120.748 E.03121
G1 X116.372 Y120.342 E.03125
G1 X116.327 Y119.885 E.03122
G1 X116.46 Y119.444 E.03129
G1 X116.71 Y119.14 E.02672
G1 X117.906 Y120.197 F30000
;TYPE:Bottom surface
;WIDTH:0.731124
G1 F3600
G1 X117.307 Y119.598 E.06908
G1 X117.485 Y120.338 F30000
;TYPE:Gap infill
;WIDTH:0.212535
G1 F2400
G3 X117.162 Y119.985 I.713 J-.978 E.00872
M73 P5 R2
G1 E-1.08
M73 P5 R2
;WIPE_START
G1 X117.297 Y120.168 E-.05669
G1 X117.485 Y120.338 E-.06331
;WIPE_END
G1 X117.678 Y114.426 Z.7 F30000
G1 Z.3
G1 E1.2 F1800
;TYPE:Inner wall
;WIDTH:0.62
G1 F2400
G1 X117.843 Y114.487 E.01199
G1 X118.047 Y114.706 E.02033
G1 X118.118 Y115 E.02051
G1 X118.071 Y115.236 E.01632
G1 X117.895 Y115.48 E.02044
G1 X117.621 Y115.606 E.02044
G1 X117.32 Y115.594 E.02048
G1 X117.063 Y115.437 E.02044
G1 X116.906 Y115.18 E.02044
G1 X116.894 Y114.881 E.02033
G1 X117.02 Y114.606 E.02052
G1 X117.264 Y114.429 E.0205
G1 X117.56 Y114.382 E.02034
G1 X117.621 Y114.405 E.00445
G1 X116.769 Y114.08 F30000
;TYPE:Outer wall
G1 F2400
G1 X117.158 Y113.872 E.02993
G1 X117.615 Y113.827 E.03122
G1 X118.056 Y113.96 E.03126
G1 X118.412 Y114.252 E.03127
G1 X118.628 Y114.658 E.03122
G1 X118.673 Y115.115 E.03122
G1 X118.54 Y115.556 E.03129
G1 X118.248 Y115.912 E.03121
G1 X117.842 Y116.128 E.03125
G1 X117.385 Y116.173 E.03122
G1 X116.944 Y116.04 E.03129
G1 X116.588 Y115.748 E.03121
G1 X116.372 Y115.342 E.03125
G1 X116.327 Y114.885 E.03122
G1 X116.46 Y114.444 E.03129
G1 X116.726 Y114.12 E.02843
G1 X117.906 Y115.197 F30000
;TYPE:Bottom surface
;WIDTH:0.731124
G1 F3600
G1 X117.307 Y114.598 E.06908
G1 X117.485 Y115.338 F30000
;TYPE:Gap infill
;WIDTH:0.212537
G1 F2400
G3 X117.162 Y114.985 I.713 J-.978 E.00872
G1 E-1.08
;WIPE_START
G1 X117.297 Y115.168 E-.05669
G1 X117.485 Y115.338 E-.06331
;WIPE_END
G1 X117.28 Y109.427 Z.7 F30000
G1 Z.3
G1 E1.2 F1800
;TYPE:Inner wall
;WIDTH:0.62
G1 F2400
G1 X117.56 Y109.382 E.01925
G1 X117.843 Y109.487 E.02051
G1 X118.047 Y109.706 E.02033
G1 X118.118 Y110 E.02051
G1 X118.071 Y110.236 E.01632
G1 X117.895 Y110.48 E.02044
G1 X117.621 Y110.606 E.02044
G1 X117.32 Y110.594 E.02048
G1 X117.063 Y110.437 E.02044
G1 X116.906 Y110.18 E.02044
G1 X116.894 Y109.881 E.02033
G1 X117.02 Y109.606 E.02052
G1 X117.229 Y109.455 E.01751
G1 X116.332 Y109.866 F30000
;TYPE:Outer wall
G1 F2400
G1 X116.46 Y109.444 E.02996
M73 P6 R2
G1 X116.752 Y109.089 E.03116
M73 P6 R2
G1 X117.158 Y108.872 E.03128
G1 X117.615 Y108.827 E.03122
G1 X118.056 Y108.96 E.03126
G1 X118.412 Y109.252 E.03127
G1 X118.628 Y109.658 E.03122
G1 X118.673 Y110.115 E.03122
G1 X118.54 Y110.556 E.03129
G1 X118.248 Y110.912 E.03121
G1 X117.842 Y111.128 E.03125
G1 X117.385 Y111.173 E.03122
G1 X116.944 Y111.04 E.03129
G1 X116.588 Y110.748 E.03121
G1 X116.372 Y110.342 E.03125
G1 X116.331 Y109.925 E.02848
G1 X117.906 Y110.197 F30000
;TYPE:Bottom surface
;WIDTH:0.731124
G1 F3600
G1 X117.307 Y109.598 E.06908
G1 X117.485 Y110.338 F30000
;TYPE:Gap infill
;WIDTH:0.212534
G1 F2400
G3 X117.162 Y109.985 I.713 J-.978 E.00872
G1 E-1.08
;WIPE_START
G1 X117.297 Y110.168 E-.05669
G1 X117.485 Y110.338 E-.06331
;WIPE_END
G1 X113.073 Y110.222 Z.7 F30000
G1 Z.3
G1 E1.2 F1800
;TYPE:Inner wall
;WIDTH:0.62
G1 F2400
G1 X113.071 Y110.236 E.00093
G1 X112.895 Y110.48 E.02043
G1 X112.621 Y110.606 E.02044
G1 X112.32 Y110.594 E.02048
G1 X112.063 Y110.437 E.02044
G1 X111.906 Y110.18 E.02044
G1 X111.894 Y109.881 E.02033
G1 X112.02 Y109.606 E.02052
G1 X112.264 Y109.429 E.0205
G1 X112.56 Y109.382 E.02034
G1 X112.843 Y109.487 E.02051
G1 X113.047 Y109.706 E.02033
G1 X113.118 Y110 E.02051
G1 X113.085 Y110.163 E.01132
G1 X113.408 Y109.249 F30000
;TYPE:Outer wall
G1 F2400
G1 X113.412 Y109.252 E.00035
G1 X113.628 Y109.658 E.03122
G1 X113.673 Y110.115 E.03122
G1 X113.54 Y110.556 E.03129
G1 X113.248 Y110.912 E.03121
G1 X112.842 Y111.128 E.03125
G1 X112.385 Y111.173 E.03122
G1 X111.944 Y111.04 E.03129
G1 X111.588 Y110.748 E.03121
G1 X111.372 Y110.342 E.03125
G1 X111.327 Y109.885 E.03122
G1 X111.46 Y109.444 E.03129
G1 X111.752 Y109.089 E.03116
G1 X112.158 Y108.872 E.03128
G1 X112.615 Y108.827 E.03122
G1 X113.056 Y108.96 E.03126
G1 X113.361 Y109.211 E.02684
G1 X112.906 Y110.197 F30000
;TYPE:Bottom surface
;WIDTH:0.731124
G1 F3600
G1 X112.307 Y109.598 E.06908
G1 X112.485 Y110.338 F30000
;TYPE:Gap infill
;WIDTH:0.212536
G1 F2400
