; HEADER_BLOCK_START
; generated by Creality_Print V6.1.0.2041 on 2025-04-23 at 08:58:46
; total layer number: 18
; filament_density: 1.24
; filament_diameter: 1.75
; max_z_height: 5.40
; HEADER_BLOCK_END

; MINX = 10.00
; MINY = 41.20
; MINZ = 0.00
; MAXX = 210.00
; MAXY = 178.80
; MAXZ = 5.50

; THUMBNAIL_BLOCK_START

;
; THUMBNAIL_BLOCK_END

; THUMBNAIL_BLOCK_START

;
; THUMBNAIL_BLOCK_END

; external perimeters extrusion width = 0.62mm
; perimeters extrusion width = 0.62mm
; infill extrusion width = 0.62mm
; solid infill extrusion width = 0.62mm
; top infill extrusion width = 0.62mm
; support material extrusion width = 0.62mm
; first layer extrusion width = 0.62mm

; EXECUTABLE_BLOCK_START
EXCLUDE_OBJECT_DEFINE NAME=S_Base2.stl_id_0_copy_0 CENTER=110,110 POLYGON=[[10,41.1995],[210,41.1995],[210,169.878],[197.879,172.302],[140.695,178.779],[90.652,178.801],[90.65,178.801],[25.121,172.302],[10,169.878],[10,41.1995]]
M73 P0 R85
M106 S0
M106 P2 S0
;TYPE:Custom
M141 S35;set chamber_temperature
START_PRINT EXTRUDER_TEMP=210 BED_TEMP=50
T0
M204 S2000
M104 S210
G1 Z3 F600
M83
G92 E0
G1 Z1 F600
G90
G21
M83 ; use relative distances for extrusion
SET_PRESSURE_ADVANCE ADVANCE=0.026; Override pressure advance value
G1 E-1.2 F2400
M106 S0
;LAYER_CHANGE
;Z:0.3
;HEIGHT:0.3
;BEFORE_LAYER_CHANGE
;0.3
G92 E0

;AFTER_LAYER_CHANGE
;0.3
;_SET_FAN_SPEED_CHANGING_LAYER
SET_VELOCITY_LIMIT ACCEL=500 ACCEL_TO_DECEL=250
SET_VELOCITY_LIMIT SQUARE_CORNER_VELOCITY=12
EXCLUDE_OBJECT_START NAME=S_Base2.stl_id_0_copy_0
G1 Z.4 F30000
G1 X30.157 Y172.123
G1 Z.3
G1 E1.2 F1800
;TYPE:Support
;WIDTH:0.62
G1 F2400
G1 X25.043 Y172.123 E.34737
G2 X26.667 Y172.983 I1.193 J-.29 E.14104
G2 X29.395 Y173.372 I2.657 J-8.879 E.18781
G2 X30.157 Y172.123 I-.426 J-1.117 E.10692
G1 X30.522 Y171.506 F30000
G1 F2400
G3 X28.503 Y173.935 I-1.508 J.8 E.27399
G3 X26.648 Y173.615 I1.038 J-11.557 E.12797
G3 X24.645 Y171.506 I-.493 J-1.537 E.24597
G1 X30.522 Y171.506 E.39912
G1 X30.827 Y170.889 F30000
G1 F2400
G3 X28.387 Y174.547 I-1.828 J1.423 E.39332
M73 P0 R84
G2 X25.189 Y174.107 I-127.974 J919.322 E.21921
M73 P0 R84
G3 X24.028 Y171.429 I1.21 J-2.116 E.21257
G1 X23.731 Y170.889 E.04186
G1 X30.827 Y170.889 E.48195
G1 X31.109 Y170.388 F30000
G1 F2400
G1 X23.029 Y170.388 E.54878
G2 X23.494 Y171.496 I2.39 J-.352 E.08246
G2 X26.613 Y174.759 I2.643 J.596 E.36234
G2 X30.572 Y174.735 I1.949 J-5.045 E.27525
G2 X31.178 Y170.417 I-1.894 J-2.468 E.32816
G1 E-1.08
;WIPE_START
G1 X31.787 Y171.666 E-.08336
G1 X31.787 Y172.276 E-.03664
;WIPE_END
G1 X39.42 Y172.243 Z.7 F30000
G1 X67.3 Y172.123 Z.7
G1 Z.3
G1 E1.2 F1800
G1 F2400
G1 X62.044 Y172.123 E.35696
G2 X63.668 Y172.983 I1.193 J-.29 E.14102
G2 X66.788 Y173.175 I1.957 J-6.363 E.2143
G2 X67.3 Y172.123 I-.915 J-1.095 E.08184
G1 X67.708 Y171.506 F30000
G1 F2400
G3 X67.121 Y173.7 I-1.695 J.722 E.16622
G3 X63.649 Y173.615 I-1.603 J-5.464 E.23973
G3 X61.646 Y171.506 I-.493 J-1.537 E.24595
G1 X67.708 Y171.506 E.41168
G1 X68.035 Y170.889 F30000
G1 F2400
G1 X60.732 Y170.889 E.49596
G3 X60.93 Y172.372 I-1.698 J.982 E.1043
G2 X63.63 Y174.247 I2.215 J-.308 E.25077
G2 X67.455 Y174.226 I1.881 J-5.68 E.26443
G2 X68.035 Y170.889 I-1.264 J-1.939 E.25807
G1 X68.632 Y170.86 F30000
G1 F2400
G1 X68.289 Y170.388 E.03959
G1 X60.03 Y170.388 E.56093
G2 X60.495 Y171.496 I2.39 J-.352 E.08246
G2 X63.614 Y174.759 I2.643 J.596 E.36231
G2 X67.725 Y174.651 I1.899 J-5.998 E.2845
G2 X68.681 Y170.927 I-1.856 J-2.461 E.28193
G1 E-1.08
;WIPE_START
G1 X69.028 Y172.28 E-.0838
G1 X68.953 Y172.879 E-.0362
;WIPE_END
G1 X76.583 Y172.71 Z.7 F30000
G1 X158.735 Y170.889 Z.7
G1 Z.3
G1 E1.2 F1800
G1 F2400
G1 X166.037 Y170.889 E.49594
G3 X163.452 Y174.55 I-1.991 J1.338 E.39305
G3 X160.192 Y174.107 I10.515 J-89.582 E.22346
G3 X159.031 Y171.428 I1.21 J-2.116 E.21265
G1 X158.735 Y170.889 E.04177
G1 X159.648 Y171.506 F30000
G1 F2400
G2 X161.651 Y173.615 I1.51 J.572 E.24598
G2 X165.124 Y173.7 I1.87 J-5.382 E.23976
G2 X165.711 Y171.506 I-1.109 J-1.472 E.16623
G1 X159.648 Y171.506 E.41173
G1 X160.046 Y172.123 F30000
G1 F2400
G1 X165.302 Y172.123 E.35702
G3 X163.789 Y173.245 I-1.121 J.069 E.1517
G3 X161.67 Y172.983 I-.338 J-5.97 E.14579
G3 X160.046 Y172.123 I-.431 J-1.15 E.14105
G1 X166.635 Y170.86 F30000
G1 F2400
G1 X166.292 Y170.388 E.0396
G1 X158.033 Y170.388 E.56091
G2 X158.497 Y171.495 I2.387 J-.351 E.08236
G2 X161.616 Y174.759 I2.643 J.597 E.36243
G2 X165.728 Y174.651 I1.9 J-6 E.28453
G2 X166.684 Y170.928 I-1.856 J-2.461 E.28193
G1 E-1.08
;WIPE_START
G1 X167.031 Y172.28 E-.0838
G1 X166.955 Y172.879 E-.0362
;WIPE_END
G1 X174.567 Y172.313 Z.7 F30000
G1 X193.735 Y170.889 Z.7
G1 Z.3
G1 E1.2 F1800
G1 F2400
G1 X194.032 Y171.429 E.04186
G2 X195.193 Y174.107 I2.372 J.563 E.21257
G3 X198.391 Y174.546 I-137.839 J1015.394 E.21921
G2 X200.834 Y170.889 I.611 J-2.236 E.39324
G1 X193.735 Y170.889 E.4821
G1 X194.649 Y171.506 F30000
G1 F2400
G2 X196.652 Y173.615 I1.51 J.572 E.24598
G2 X198.507 Y173.935 I2.889 J-11.22 E.12796
G2 X200.526 Y171.506 I.512 J-1.629 E.27396
G1 X194.649 Y171.506 E.39911
G1 X195.047 Y172.123 F30000
G1 F2400
G1 X200.161 Y172.123 E.34736
G3 X199.399 Y173.372 I-1.188 J.131 E.1069
G3 X196.671 Y172.983 I-.07 J-9.273 E.1878
G3 X195.047 Y172.123 I-.431 J-1.15 E.14105
G1 X201.12 Y170.388 F30000
G1 F2400
G1 X193.033 Y170.388 E.5492
G2 X193.498 Y171.496 I2.389 J-.352 E.08245
G2 X196.617 Y174.759 I2.643 J.596 E.36235
G2 X200.576 Y174.735 I1.948 J-5.047 E.27523
G2 X201.186 Y170.421 I-1.895 J-2.468 E.32774
G1 E-1.08
;WIPE_START
G1 X201.791 Y171.666 E-.08301
G1 X201.791 Y172.282 E-.03699
;WIPE_END
G1 X194.165 Y171.979 Z.7 F30000
G1 X97.723 Y168.14 Z.7
G1 Z.3
G1 E1.2 F1800
;TYPE:Inner wall
;WIDTH:0.62
G1 F2400
G1 X97.519 Y168.152 E.01391
G1 X97.188 Y168.284 E.02417
G1 X96.919 Y168.583 E.02737
G1 X96.869 Y168.697 E.00842
G1 X96.833 Y169.004 E.021
G1 X96.337 Y168.914 E.03425
G1 X95.316 Y168.863 E.06945
G1 X11.016 Y168.863 E5.72514
G1 X11.016 Y42.215 E8.60114
G1 X208.984 Y42.215 E13.44482
G1 X208.984 Y168.863 E8.60115
G1 X136.043 Y168.883 E4.95374
G1 X135.175 Y168.89 E.05896
G1 X134.407 Y168.99 E.05257
G1 X134.311 Y168.508 E.03339
G1 X134.244 Y168.424 E.0073
G1 X133.927 Y168.206 E.02613
G1 X133.62 Y168.151 E.02115
G1 X132.978 Y168.163 E.04361
G1 X132.655 Y168.283 E.02343
G1 X132.409 Y168.52 E.02322
G1 X132.221 Y168.938 E.03109
G1 X132.216 Y169.279 E.02315
G1 X132.316 Y169.545 E.01932
G2 X132.915 Y170.127 I2.494 J-1.963 E.05688
G1 X133.032 Y170.298 E.01404
G2 X133.612 Y171.27 I4.6 J-2.084 E.07701
G1 X138.086 Y176.877 E.48722
G1 X138.772 Y177.686 E.07199
G1 X137.674 Y177.651 E.0746
G1 X93.733 Y177.651 E2.98422
G1 X92.763 Y177.699 E.06595
G1 X93.298 Y177.104 E.05437
G1 X97.374 Y172.002 E.44348
G2 X97.897 Y171.128 I-3.899 J-2.923 E.06928
G1 X98.245 Y170.692 E.0379
G1 X98.332 Y170.709 E.00597
G1 X98.519 Y170.55 E.01673
G1 X99.34 Y169.605 E.08502
G1 X99.465 Y169.305 E.02205
G1 X99.476 Y169.008 E.02017
G1 X99.304 Y168.562 E.03245
G1 X99.132 Y168.324 E.01994
G1 X98.851 Y168.145 E.02263
G1 X98.507 Y168.092 E.0237
G1 X97.783 Y168.136 E.04923
G1 X98.726 Y168.706 F30000
;TYPE:Outer wall
G1 F2400
G1 X98.538 Y168.646 E.01341
G1 X97.572 Y168.709 E.0657
G1 X97.409 Y168.844 E.01438
G1 X97.383 Y169.034 E.013
G1 X97.488 Y169.568 E.03701
G1 X96.821 Y169.568 E.04527
G1 X96.309 Y169.469 E.03542
G1 X95.302 Y169.419 E.06852
G1 X10.46 Y169.418 E5.76194
G1 X10.46 Y41.66 E8.67661
G1 X209.54 Y41.66 E13.52029
G1 X209.54 Y169.419 E8.67661
G1 X136.043 Y169.439 E4.99146
G1 X135.246 Y169.441 E.0541
G1 X134.268 Y169.568 E.067
G1 X133.767 Y169.568 E.03403
G1 X133.882 Y169.119 E.03151
G1 X133.855 Y168.825 E.02003
G2 X133.629 Y168.706 I-.228 J.159 E.01806
G1 X133.096 Y168.71 E.03616
G1 X132.941 Y168.759 E.01106
G1 X132.784 Y169.001 E.01956
G1 X132.761 Y169.174 E.01184
G1 X132.85 Y169.329 E.01214
G1 X133.257 Y169.69 E.03694
G1 X133.495 Y169.731 E.01639
G1 X133.472 Y169.929 E.0135
G2 X134.046 Y170.923 I4.331 J-1.837 E.07818
G1 X138.932 Y177.04 E.53168
G2 X139.671 Y177.738 I3.39 J-2.849 E.06918
G1 X140.165 Y178.357 E.05374
G1 X139.688 Y178.357 E.03238
G1 X138.863 Y178.259 E.05638
G1 X137.674 Y178.207 E.08087
G1 X93.746 Y178.207 E2.98329
G1 X92.738 Y178.256 E.06855
G1 X92.226 Y178.355 E.03543
G1 X91.398 Y178.356 E.05619
G1 X91.784 Y177.868 E.0422
G2 X92.865 Y176.756 I-6.465 J-7.363 E.10545
G1 X96.913 Y171.692 E.44032
G2 X97.428 Y170.823 I-3.612 J-2.73 E.06871
G1 X97.917 Y170.214 E.05304
G1 X98.037 Y170.238 E.00835
G1 X98.1 Y170.185 E.00558
G1 X98.915 Y169.247 E.08437
G1 X98.913 Y169.034 E.01449
G1 X98.756 Y168.758 E.02157
G1 E-1.08
;WIPE_START
G1 X98.538 Y168.646 E-.0147
G1 X97.572 Y168.709 E-.05804
M73 P1 R84
G1 X97.409 Y168.844 E-.01271
M73 P1 R84
G1 X97.383 Y169.034 E-.01149
G1 X97.457 Y169.411 E-.02306
;WIPE_END
G1 X102.997 Y164.161 Z.7 F30000
G1 X196.461 Y75.586 Z.7
G1 Z.3
G1 E1.2 F1800
;TYPE:Inner wall
G1 F2400
G1 X196.566 Y75.96 E.02638
G1 X196.612 Y76.57 E.04155
G1 X196.539 Y77.176 E.0414
G1 X196.347 Y77.758 E.04161
G1 X196.049 Y78.287 E.04129
G1 X195.647 Y78.754 E.04183
G1 X195.169 Y79.129 E.04127
G1 X194.622 Y79.406 E.04163
G1 X194.037 Y79.568 E.04122
G1 X193.426 Y79.614 E.04161
G1 X192.821 Y79.541 E.0414
G1 X192.239 Y79.35 E.04158
G1 X191.707 Y79.049 E.0415
G1 X191.246 Y78.653 E.0413
G1 X190.849 Y78.143 E.04388
G1 X190.593 Y77.627 E.03915
G1 X190.429 Y77.035 E.0417
G1 X190.382 Y76.431 E.04113
G1 X190.457 Y75.821 E.04175
G1 X190.647 Y75.242 E.04143
G1 X190.948 Y74.71 E.04149
G1 X191.343 Y74.248 E.04129
G1 X191.825 Y73.871 E.04152
G1 X192.369 Y73.596 E.04142
G1 X192.96 Y73.431 E.04166
G1 X193.569 Y73.385 E.04145
G1 X194.173 Y73.459 E.04138
G1 X194.755 Y73.65 E.04156
G1 X195.285 Y73.948 E.04132
G1 X195.749 Y74.346 E.04152
G1 X196.125 Y74.825 E.04136
G1 X196.402 Y75.374 E.04175
G1 X196.445 Y75.528 E.01091
G1 X195.737 Y75.267 F30000
;TYPE:Outer wall
G1 F2400
G1 X195.918 Y75.662 E.02954
G1 X196.035 Y76.149 E.03398
G1 X196.054 Y76.652 E.03415
G1 X195.976 Y77.149 E.03416
G1 X195.801 Y77.619 E.03408
G1 X195.539 Y78.046 E.03403
G1 X195.196 Y78.417 E.03432
G1 X194.79 Y78.711 E.03402
G1 X194.333 Y78.921 E.03418
G1 X193.848 Y79.037 E.03385
G1 X193.345 Y79.057 E.03422
G1 X192.848 Y78.978 E.03416
G1 X192.377 Y78.804 E.03411
G1 X191.95 Y78.541 E.03406
G1 X191.586 Y78.207 E.03354
G1 X191.291 Y77.802 E.03405
G1 X191.079 Y77.347 E.03406
G1 X190.961 Y76.859 E.03408
G1 X190.939 Y76.356 E.03423
G1 X191.017 Y75.858 E.03417
G1 X191.189 Y75.388 E.03402
G1 X191.456 Y74.953 E.03467
G1 X191.797 Y74.583 E.03417
G1 X192.202 Y74.29 E.03394
G1 X192.657 Y74.08 E.03405
G1 X193.15 Y73.961 E.03445
G1 X193.65 Y73.942 E.03394
G1 X194.144 Y74.021 E.03398
G1 X194.616 Y74.196 E.03419
G1 X195.045 Y74.458 E.03415
G1 X195.411 Y74.797 E.0339
G1 X195.708 Y75.204 E.03417
G1 X195.712 Y75.213 E.00064
G1 E-1.08
;WIPE_START
G1 X195.918 Y75.662 E-.0297
G1 X196.035 Y76.149 E-.03002
G1 X196.054 Y76.652 E-.03017
G1 X195.976 Y77.147 E-.03011
;WIPE_END
G1 X198.414 Y69.915 Z.7 F30000
G1 X207.693 Y42.382 Z.7
G1 Z.3
G1 E1.2 F1800
;TYPE:Bottom surface
;WIDTH:0.620559
G1 F3600
G1 X208.568 Y43.256 E.08406
G1 X208.568 Y44.043 E.05347
G1 X207.157 Y42.632 E.13564
G1 X206.37 Y42.632 E.05347
G1 X208.568 Y44.829 E.21126
G1 X208.568 Y45.616 E.05347
G1 X205.584 Y42.632 E.28688
G1 X204.797 Y42.632 E.05347
G1 X208.568 Y46.402 E.3625
G1 X208.568 Y47.189 E.05347
G1 X204.011 Y42.632 E.43812
G1 X203.224 Y42.632 E.05347
G1 X208.568 Y47.975 E.51374
G1 X208.568 Y48.762 E.05347
G1 X202.438 Y42.632 E.58936
G1 X201.651 Y42.632 E.05347
G1 X208.568 Y49.549 E.66498
G1 X208.568 Y50.335 E.05347
G1 X200.864 Y42.632 E.7406
G1 X200.078 Y42.632 E.05347
G1 X208.568 Y51.122 E.81622
G1 X208.568 Y51.908 E.05347
G1 X199.291 Y42.632 E.89184
G1 X198.505 Y42.632 E.05347
G1 X208.568 Y52.695 E.96746
G1 X208.568 Y53.481 E.05347
G1 X197.718 Y42.632 E1.04308
G1 X196.932 Y42.632 E.05347
G1 X208.568 Y54.268 E1.11871
G1 X208.568 Y55.054 E.05347
G1 X196.145 Y42.632 E1.19433
G1 X195.359 Y42.632 E.05347
G1 X208.568 Y55.841 E1.26995
G1 X208.568 Y56.628 E.05347
G1 X194.572 Y42.632 E1.34557
G1 X193.785 Y42.632 E.05347
G1 X208.568 Y57.414 E1.42119
G1 X208.568 Y58.201 E.05347
G1 X192.999 Y42.632 E1.49681
G1 X192.212 Y42.632 E.05347
G1 X208.568 Y58.987 E1.57243
G1 X208.568 Y59.774 E.05347
G1 X191.426 Y42.632 E1.64805
G1 X190.639 Y42.632 E.05347
G1 X208.568 Y60.56 E1.72367
G1 X208.568 Y61.347 E.05347
G1 X189.853 Y42.632 E1.79929
G1 X189.066 Y42.632 E.05347
G1 X208.568 Y62.133 E1.87491
G1 X208.568 Y62.92 E.05347
G1 X188.28 Y42.632 E1.95053
M73 P1 R83
G1 X187.493 Y42.632 E.05347
M73 P1 R83
G1 X208.568 Y63.707 E2.02615
G1 X208.568 Y64.493 E.05347
G1 X186.706 Y42.632 E2.10177
G1 X185.92 Y42.632 E.05347
G1 X208.568 Y65.28 E2.17739
G1 X208.568 Y66.066 E.05347
G1 X185.133 Y42.632 E2.25301
G1 X184.347 Y42.632 E.05347
G1 X208.568 Y66.853 E2.32863
G1 X208.568 Y67.639 E.05347
G1 X183.56 Y42.632 E2.40425
G1 X182.774 Y42.632 E.05347
G1 X208.568 Y68.426 E2.47987
G1 X208.568 Y69.212 E.05347
G1 X181.987 Y42.632 E2.55549
G1 X181.201 Y42.632 E.05347
G1 X208.568 Y69.999 E2.63111
G1 X208.568 Y70.786 E.05347
G1 X180.414 Y42.632 E2.70673
G1 X179.627 Y42.632 E.05347
G1 X208.568 Y71.572 E2.78235
G1 X208.568 Y72.359 E.05347
G1 X178.841 Y42.632 E2.85797
G1 X178.054 Y42.632 E.05347
G1 X208.568 Y73.145 E2.93359
G1 X208.568 Y73.932 E.05347
G1 X177.268 Y42.632 E3.00922
G1 X176.481 Y42.632 E.05347
G1 X208.568 Y74.718 E3.08484
G1 X208.568 Y75.505 E.05347
G1 X175.695 Y42.632 E3.16046
G1 X174.908 Y42.632 E.05347
G1 X208.568 Y76.291 E3.23608
G1 X208.568 Y77.078 E.05347
G1 X174.122 Y42.632 E3.3117
G1 X173.335 Y42.632 E.05347
G1 X208.568 Y77.865 E3.38732
G1 X208.568 Y78.651 E.05347
G1 X172.548 Y42.632 E3.46294
G1 X171.762 Y42.632 E.05347
G1 X208.568 Y79.438 E3.53856
G1 X208.568 Y80.224 E.05347
G1 X170.975 Y42.632 E3.61418
G1 X170.189 Y42.632 E.05347
G1 X208.568 Y81.011 E3.6898
G1 X208.568 Y81.797 E.05347
G1 X169.402 Y42.632 E3.76542
G1 X168.616 Y42.632 E.05347
G1 X208.568 Y82.584 E3.84104
G1 X208.568 Y83.37 E.05347
G1 X167.829 Y42.632 E3.91666
G1 X167.043 Y42.632 E.05347
G1 X208.568 Y84.157 E3.99228
G1 X208.568 Y84.944 E.05347
G1 X166.256 Y42.632 E4.0679
G1 X165.469 Y42.632 E.05347
G1 X208.568 Y85.73 E4.14352
G1 X208.568 Y86.517 E.05347
G1 X164.683 Y42.632 E4.21914
G1 X163.896 Y42.632 E.05347
G1 X194.331 Y73.066 E2.92599
G1 X194.971 Y73.287 E.04603
G1 X195.6 Y73.656 E.04962
G1 X196.113 Y74.121 E.04708
G1 X196.528 Y74.678 E.04716
G1 X196.826 Y75.308 E.04741
G1 X196.911 Y75.647 E.02374
G1 X208.568 Y87.303 E1.12067
G1 X208.568 Y88.09 E.05347
G1 X197.022 Y76.544 E1.11
G1 X197.028 Y76.672 E.00869
G1 X196.943 Y77.252 E.03984
G1 X208.568 Y88.876 E1.1176
G1 X208.568 Y89.663 E.05347
G1 X196.752 Y77.847 E1.13595
G1 X196.693 Y78.012 E.01191
G1 X196.482 Y78.364 E.02788
G1 X208.568 Y90.449 E1.1619
G1 X208.568 Y91.236 E.05347
G1 X196.147 Y78.815 E1.19412
G1 X195.868 Y79.122 E.0282
G1 X195.753 Y79.208 E.00975
G1 X208.568 Y92.022 E1.23202
G1 X208.568 Y92.809 E.05347
G1 X195.299 Y79.541 E1.27564
G1 X194.767 Y79.795 E.04011
G1 X208.568 Y93.596 E1.32683
G1 X208.568 Y94.382 E.05347
G1 X194.151 Y79.966 E1.38603
G1 X194.051 Y79.992 E.00706
G1 X193.424 Y80.025 E.04265
G1 X208.818 Y95.419 E1.47996
G1 E-1.08 F2400
;WIPE_START
G1 F3600
G1 X207.403 Y94.005 E-.12
;WIPE_END
G1 X203.202 Y87.632 Z.7 F30000
G1 X193.704 Y73.226 Z.7
G1 Z.3
G1 E1.2 F1800
G1 F3600
G1 X163.11 Y42.632 E2.94136
G1 X162.323 Y42.632 E.05347
G1 X192.749 Y73.058 E2.9252
G1 X192.302 Y73.173 E.03141
G1 X192.15 Y73.245 E.01145
G1 X161.537 Y42.632 E2.94316
G1 X160.75 Y42.632 E.05347
G1 X191.625 Y73.507 E2.96838
G1 X191.175 Y73.843 E.0382
G1 X159.964 Y42.632 E3.00072
G1 X159.177 Y42.632 E.05347
G1 X190.792 Y74.247 E3.03951
G2 X190.468 Y74.709 I1.036 J1.073 E.03862
G1 X158.39 Y42.632 E3.08394
G1 X157.604 Y42.632 E.05347
G1 X190.211 Y75.239 E3.13488
M73 P2 R83
G1 X190.071 Y75.628 E.02815
M73 P2 R83
G1 X190.037 Y75.852 E.01536
G1 X156.817 Y42.632 E3.19381
G1 X156.031 Y42.632 E.05347
G1 X190.242 Y76.843 E3.28911
G1 E-1.08 F2400
;WIPE_START
G1 F3600
G1 X188.828 Y75.429 E-.12
;WIPE_END
G1 X194.12 Y80.929 Z.7 F30000
G1 X208.818 Y96.205 Z.7
G1 Z.3
G1 E1.2 F1800
G1 F3600
G1 X192.49 Y79.878 E1.56976
