; HEADER_BLOCK_START
; generated by Creality_Print V6.1.0.2041 on 2025-04-23 at 09:28:21
; total layer number: 39
; filament_density: 1.24
; filament_diameter: 1.75
; max_z_height: 9.30
; HEADER_BLOCK_END

; MINX = 10.00
; MINY = 48.95
; MINZ = 0.00
; MAXX = 210.00
; MAXY = 171.05
; MAXZ = 9.24

; THUMBNAIL_BLOCK_START

;
; THUMBNAIL_BLOCK_END

; THUMBNAIL_BLOCK_START

;
; THUMBNAIL_BLOCK_END

; external perimeters extrusion width = 0.62mm
; perimeters extrusion width = 0.62mm
; infill extrusion width = 0.62mm
; solid infill extrusion width = 0.62mm
; top infill extrusion width = 0.62mm
; support material extrusion width = 0.62mm
; first layer extrusion width = 0.62mm

; EXECUTABLE_BLOCK_START
EXCLUDE_OBJECT_DEFINE NAME=S_Base1_1_.stl_id_0_copy_0 CENTER=110,110 POLYGON=[[10,49.728],[97.793,48.951],[133.5,48.951],[210,49.728],[210,171.049],[10,171.049],[10,49.728]]
M73 P0 R79
M106 S0
M106 P2 S0
;TYPE:Custom
M141 S35;set chamber_temperature
START_PRINT EXTRUDER_TEMP=210 BED_TEMP=50
T0
M204 S2000
M104 S210
G1 Z3 F600
M83
G92 E0
G1 Z1 F600
G90
G21
M83 ; use relative distances for extrusion
SET_PRESSURE_ADVANCE ADVANCE=0.026; Override pressure advance value
G1 E-1.2 F2400
M106 S0
;LAYER_CHANGE
;Z:0.3
;HEIGHT:0.3
;BEFORE_LAYER_CHANGE
;0.3
G92 E0

;AFTER_LAYER_CHANGE
;0.3
;_SET_FAN_SPEED_CHANGING_LAYER
SET_VELOCITY_LIMIT ACCEL=500 ACCEL_TO_DECEL=250
SET_VELOCITY_LIMIT SQUARE_CORNER_VELOCITY=12
EXCLUDE_OBJECT_START NAME=S_Base1_1_.stl_id_0_copy_0
G1 Z.4 F30000
G1 X31.46 Y173.911
G1 Z.3
G1 E1.2 F1800
;TYPE:Support
;WIDTH:0.62
G1 F2400
G1 X29.99 Y173.911 E.09981
G1 X29.883 Y174.328 E.02924
G2 X31.588 Y174.289 I.827 J-1.115 E.12468
G1 X31.46 Y173.911 E.0271
G1 X32.483 Y173.294 F30000
G1 F2400
G3 X29.392 Y174.762 I-1.838 J.119 E.2981
G3 X27.737 Y173.294 I-.369 J-1.251 E.17934
G1 X32.483 Y173.294 E.32228
G1 X32.897 Y172.676 F30000
G1 F2400
G1 X27.381 Y172.676 E.37461
G2 X29.215 Y175.37 I1.541 J.922 E.27727
G2 X32.897 Y172.676 I1.497 J-1.817 E.42232
G1 X33.212 Y172.059 F30000
G1 F2400
G1 X33.419 Y172.322 E.02272
G3 X29.038 Y175.977 I-2.687 J1.233 E.52432
G3 X27.071 Y172.059 I-.066 J-2.42 E.37246
G1 X33.212 Y172.059 E.41711
G1 X33.804 Y172.003 F30000
G1 F2400
G1 X33.455 Y171.559 E.03834
G1 X26.854 Y171.559 E.44829
G2 X28.894 Y176.469 I2.123 J1.997 E.45469
G2 X33.856 Y172.068 I1.847 J-2.915 E.60487
G1 E-1.08
;WIPE_START
G1 X34.183 Y172.872 E-.0521
G1 X34.273 Y173.734 E-.05199
G1 X34.227 Y173.995 E-.01591
;WIPE_END
G1 X28.509 Y168.94 Z.7 F30000
G1 X7.138 Y150.046 Z.7
G1 Z.3
G1 E1.2 F1800
G1 F2400
G1 X7.138 Y151.662 E.10976
G1 X6.669 Y151.736 E.03226
G3 X7.138 Y150.046 I.914 J-.656 E.13658
G1 X7.755 Y149.011 F30000
G1 F2400
G2 X6.643 Y149.815 I.281 J1.559 E.0964
G2 X6.182 Y152.238 I.86 J1.419 E.18883
G2 X6.846 Y153.535 I15.79 J-7.262 E.09895
G2 X7.755 Y153.773 I.753 J-1.015 E.06545
G1 X7.755 Y149.011 E.32347
G1 X8.373 Y148.467 F30000
G1 F2400
G1 X8.373 Y154.238 E.39194
G3 X5.854 Y152.87 I-.774 J-1.579 E.22765
G3 X5.911 Y149.549 I2.033 J-1.626 E.24465
G3 X8.09 Y148.407 I2.311 J1.763 E.17249
G1 X8.373 Y148.467 E.01961
G1 X8.99 Y148.022 F30000
G1 F2400
G1 X8.99 Y154.578 E.44525
G3 X5.268 Y153.1 I-1.333 J-2.069 E.3177
G3 X5.515 Y149.069 I2.548 J-1.867 E.29752
G3 X8.99 Y148.022 I2.45 J1.84 E.26383
G1 X8.923 Y147.442 F30000
G1 F2400
G1 X9.49 Y147.7 E.04231
G1 X9.49 Y154.827 E.48406
G3 X4.793 Y153.286 I-1.882 J-2.191 E.40291
G3 X5.464 Y148.392 I3.077 J-2.071 E.36708
G3 X8.841 Y147.425 I2.437 J2.127 E.2522
G1 E-1.08
;WIPE_START
G1 X7.457 Y147.297 E-.08341
G1 X6.865 Y147.444 E-.03659
;WIPE_END
G1 X8.387 Y139.965 Z.7 F30000
G1 X27.815 Y44.489 Z.7
G1 Z.3
G1 E1.2 F1800
G1 F2400
G2 X24.98 Y49.218 I-.792 J2.739 E.50828
G1 X30.119 Y49.218 E.34902
G2 X28.21 Y44.652 I-2.178 J-1.771 E.41136
G1 X27.897 Y44.505 E.0235
G1 X29.109 Y47.483 F30000
G1 F2400
G1 X25.904 Y47.483 E.21766
G3 X27.67 Y46.315 I1.124 J-.22 E.18345
G3 X29.109 Y47.483 I.082 J1.369 E.13823
G1 X29.498 Y48.101 F30000
G1 F2400
G2 X27.862 Y45.723 I-1.674 J-.6 E.22865
G2 X25.522 Y48.101 I-.846 J1.507 E.3064
G1 X29.498 Y48.101 E.27002
G1 X29.865 Y48.718 F30000
G1 F2400
G2 X28.055 Y45.131 I-1.933 J-1.274 E.33027
G2 X25.197 Y48.718 I-.985 J2.147 E.42613
G1 X29.865 Y48.718 E.31702
G1 E-1.08
;WIPE_START
G1 X27.865 Y48.718 E-.12
;WIPE_END
G1 X35.448 Y47.853 Z.7 F30000
G1 X64.849 Y44.499 Z.7
G1 Z.3
G1 E1.2 F1800
G1 F2400
G2 X62.045 Y49.218 I-.787 J2.724 E.50693
G1 X67.008 Y49.218 E.33705
G2 X65.577 Y44.819 I-2.318 J-1.678 E.36587
G1 X64.931 Y44.515 E.0485
G1 X65.861 Y47.483 F30000
G1 F2400
G2 X64.904 Y46.513 I-1.255 J.281 E.09755
G2 X62.959 Y47.483 I-.828 J.774 E.19735
G1 X65.861 Y47.483 E.1971
G1 X66.346 Y48.101 F30000
G1 F2400
G1 X62.582 Y48.101 E.25563
G3 X64.974 Y45.77 I1.479 J-.874 E.3109
G3 X66.346 Y48.101 I-.605 J1.926 E.2013
G1 X66.733 Y48.718 F30000
G1 F2400
G2 X65.537 Y45.435 I-1.898 J-1.168 E.27276
G2 X62.262 Y48.718 I-1.486 J1.793 E.46773
G1 X66.733 Y48.718 E.30363
G1 E-1.08
;WIPE_START
G1 X64.733 Y48.718 E-.12
;WIPE_END
G1 X72.365 Y48.718 Z.7 F30000
G1 X160.189 Y48.718 Z.7
G1 Z.3
G1 E1.2 F1800
G1 F2400
G1 X164.865 Y48.718 E.31756
G2 X163.055 Y45.131 I-1.933 J-1.274 E.33028
G2 X160.189 Y48.718 I-.993 J2.145 E.42708
G1 X160.515 Y48.101 F30000
G1 F2400
G3 X162.863 Y45.723 I1.494 J-.872 E.30736
G3 X164.499 Y48.101 I-.038 J1.778 E.22866
G1 X160.515 Y48.101 E.2706
G1 X160.895 Y47.483 F30000
G1 F2400
G1 X164.11 Y47.483 E.21832
G2 X162.671 Y46.315 I-1.357 J.201 E.13823
G2 X160.895 Y47.483 I-.649 J.947 E.18441
G1 X162.808 Y44.485 F30000
G1 F2400
G2 X159.973 Y49.218 I-.793 J2.741 E.50866
G1 X165.12 Y49.218 E.34956
G2 X163.211 Y44.652 I-2.178 J-1.771 E.41136
G1 X162.89 Y44.501 E.02409
G1 E-1.08
;WIPE_START
G1 X163.211 Y44.652 E-.02128
G1 X164.466 Y45.07 E-.07939
G1 X164.687 Y45.305 E-.01933
;WIPE_END
G1 X172.275 Y46.128 Z.7 F30000
G1 X195.158 Y48.612 Z.7
G1 Z.3
G1 E1.2 F1800
G1 F2400
G1 X195.258 Y48.718 E.00988
G1 X199.708 Y48.718 E.30226
G2 X198.307 Y45.104 I-2.284 J-1.193 E.29795
G2 X195.158 Y48.612 I-1.065 J2.211 E.4295
G1 X195.582 Y48.101 F30000
G1 F2400
G3 X197.631 Y45.604 I1.541 J-.825 E.27978
G3 X199.331 Y48.101 I-.245 J1.994 E.23218
G1 X195.582 Y48.101 E.25464
G1 X195.964 Y47.483 F30000
G1 F2400
G3 X197.923 Y46.288 I1.278 J-.109 E.19308
G3 X198.858 Y47.483 I-.811 J1.597 E.10643
G1 X195.964 Y47.483 E.19657
G1 X197.696 Y44.478 F30000
G1 F2400
G2 X195.04 Y49.218 I-.554 J2.804 E.48717
G1 X199.975 Y49.218 E.33519
G2 X197.778 Y44.494 I-2.498 J-1.711 E.42605
G1 E-1.08
;WIPE_START
G1 X199.093 Y44.921 E-.08295
G1 X199.569 Y45.314 E-.03705
;WIPE_END
G1 X192.001 Y46.306 Z.7 F30000
G1 X91.073 Y59.532 Z.7
G1 Z.3
G1 E1.2 F1800
;TYPE:Inner wall
;WIDTH:0.62
G1 F2400
G1 X140.935 Y59.532 E3.38631
G1 X141.268 Y59.457 E.02319
G1 X141.546 Y59.252 E.02341
G1 X141.774 Y58.853 E.03123
G1 X141.85 Y58.592 E.01848
G1 X141.825 Y58.267 E.02213
G1 X141.674 Y57.972 E.02255
G1 X136.401 Y51.37 E.57383
G1 X135.804 Y50.696 E.06111
G1 X136.778 Y50.743 E.06619
G1 X208.984 Y50.744 E4.90383
M73 P0 R78
G1 X208.984 Y170.033 E8.10143
M73 P0 R78
G1 X11.016 Y170.033 E13.44482
G1 X11.016 Y50.744 E8.10143
G1 X94.82 Y50.743 E5.69149
G1 X95.809 Y50.697 E.06725
G1 X95.276 Y51.292 E.05427
G1 X89.939 Y57.972 E.58065
G1 X89.821 Y58.171 E.01571
G1 X89.757 Y58.521 E.02421
G1 X89.839 Y58.853 E.02322
G1 X90.08 Y59.267 E.03254
G1 X90.351 Y59.46 E.02256
G1 X90.689 Y59.532 E.02351
G1 X91.013 Y59.532 E.022
G1 X90.322 Y58.566 F30000
;TYPE:Outer wall
G1 F2400
G1 X90.506 Y58.907 E.02634
G1 X90.689 Y58.976 E.01329
G1 X140.964 Y58.976 E3.41437
G1 X141.143 Y58.869 E.01412
G1 X141.3 Y58.502 E.02715
G1 X141.24 Y58.318 E.0131
G1 X135.975 Y51.728 E.57288
G1 X135.32 Y50.987 E.0672
G1 X134.928 Y50.656 E.03479
G1 X134.434 Y50.038 E.05373
G1 X135.253 Y50.038 E.05563
G1 X135.765 Y50.138 E.03538
G1 X136.778 Y50.187 E.06889
G1 X209.54 Y50.188 E4.94156
G1 X209.54 Y170.589 E8.1769
G1 X10.46 Y170.589 E13.52029
M73 P1 R78
G1 X10.46 Y50.188 E8.1769
M73 P1 R78
G1 X94.807 Y50.188 E5.72835
G1 X95.814 Y50.141 E.06847
G1 X96.327 Y50.046 E.03536
G1 X97.175 Y50.041 E.05765
G1 X96.788 Y50.527 E.04216
G2 X95.578 Y51.804 I7.358 J8.181 E.1196
G1 X90.335 Y58.366 E.57046
G1 X90.326 Y58.506 E.00951
G1 E-1.08
;WIPE_START
G1 X90.506 Y58.907 E-.02639
G1 X90.689 Y58.976 E-.01174
G1 X92.054 Y58.976 E-.08187
;WIPE_END
G1 X96.007 Y52.447 Z.7 F30000
G1 X98.028 Y49.108 Z.7
G1 Z.3
G1 E1.2 F1800
;WIDTH:0.574381
G1 F2400
G2 X98.059 Y49.163 I-.028 J.053 E.01924
G1 E-1.08
;WIPE_START
G1 X98.028 Y49.219 E-.024
G1 X97.964 Y49.219 E-.024
G1 X97.932 Y49.163 E-.024
G1 X97.964 Y49.108 E-.024
G1 X98.028 Y49.108 E-.024
;WIPE_END
G1 X105.657 Y49.31 Z.7 F30000
G1 X208.818 Y52.034 Z.7
G1 Z.3
G1 E1.2 F1800
;TYPE:Bottom surface
;WIDTH:0.62007
G1 F3600
G1 X207.944 Y51.16 E.08388
G1 X207.159 Y51.16 E.05338
G1 X208.568 Y52.569 E.13536
G1 X208.568 Y53.355 E.05338
G1 X206.373 Y51.16 E.21084
G1 X205.587 Y51.16 E.05338
G1 X208.568 Y54.141 E.28633
G1 X208.568 Y54.927 E.05338
G1 X204.801 Y51.16 E.36182
G1 X204.015 Y51.16 E.05338
G1 X208.568 Y55.713 E.43731
G1 X208.568 Y56.499 E.05338
G1 X203.229 Y51.16 E.5128
G1 X202.443 Y51.16 E.05338
G1 X208.568 Y57.285 E.58828
G1 X208.568 Y58.07 E.05338
G1 X201.657 Y51.16 E.66377
G1 X200.872 Y51.16 E.05338
G1 X208.568 Y58.856 E.73926
G1 X208.568 Y59.642 E.05338
G1 X200.086 Y51.16 E.81475
G1 X199.3 Y51.16 E.05338
G1 X208.568 Y60.428 E.89024
G1 X208.568 Y61.214 E.05338
G1 X198.514 Y51.16 E.96572
G1 X197.728 Y51.16 E.05338
G1 X208.568 Y62 E1.04121
G1 X208.568 Y62.786 E.05338
G1 X196.942 Y51.16 E1.1167
G1 X196.156 Y51.16 E.05338
G1 X208.568 Y63.572 E1.19219
G1 X208.568 Y64.357 E.05338
G1 X195.371 Y51.16 E1.26768
G1 X194.585 Y51.16 E.05338
G1 X208.568 Y65.143 E1.34316
G1 X208.568 Y65.929 E.05338
G1 X193.799 Y51.16 E1.41865
G1 X193.013 Y51.16 E.05338
G1 X208.568 Y66.715 E1.49414
G1 X208.568 Y67.501 E.05338
G1 X192.227 Y51.16 E1.56963
G1 X191.441 Y51.16 E.05338
G1 X208.568 Y68.287 E1.64512
G1 X208.568 Y69.073 E.05338
G1 X190.655 Y51.16 E1.7206
G1 X189.869 Y51.16 E.05338
G1 X208.568 Y69.858 E1.79609
G1 X208.568 Y70.644 E.05338
G1 X189.084 Y51.16 E1.87158
G1 X188.298 Y51.16 E.05338
G1 X208.568 Y71.43 E1.94707
G1 X208.568 Y72.216 E.05338
G1 X187.512 Y51.16 E2.02256
G1 X186.726 Y51.16 E.05338
G1 X208.568 Y73.002 E2.09804
G1 X208.568 Y73.788 E.05338
G1 X185.94 Y51.16 E2.17353
G1 X185.154 Y51.16 E.05338
G1 X208.568 Y74.574 E2.24902
G1 X208.568 Y75.359 E.05338
G1 X184.368 Y51.16 E2.32451
G1 X183.582 Y51.16 E.05338
G1 X208.568 Y76.145 E2.4
G1 X208.568 Y76.931 E.05338
G1 X182.797 Y51.16 E2.47548
G1 X182.011 Y51.16 E.05338
G1 X208.568 Y77.717 E2.55097
G1 X208.568 Y78.503 E.05338
G1 X181.225 Y51.16 E2.62646
G1 X180.439 Y51.16 E.05338
G1 X208.568 Y79.289 E2.70195
G1 X208.568 Y80.075 E.05338
G1 X179.653 Y51.16 E2.77744
G1 X178.867 Y51.16 E.05338
G1 X208.568 Y80.861 E2.85292
G1 X208.568 Y81.646 E.05338
G1 X178.081 Y51.16 E2.92841
G1 X177.296 Y51.16 E.05338
G1 X208.568 Y82.432 E3.0039
G1 X208.568 Y83.218 E.05338
G1 X176.51 Y51.16 E3.07939
G1 X175.724 Y51.16 E.05338
G1 X208.568 Y84.004 E3.15488
G1 X208.568 Y84.79 E.05338
G1 X174.938 Y51.16 E3.23036
G1 X174.152 Y51.16 E.05338
G1 X208.568 Y85.576 E3.30585
G1 X208.568 Y86.362 E.05338
G1 X173.366 Y51.16 E3.38134
G1 X172.58 Y51.16 E.05338
G1 X208.568 Y87.147 E3.45683
G1 X208.568 Y87.933 E.05338
G1 X171.794 Y51.16 E3.53232
G1 X171.009 Y51.16 E.05338
G1 X208.568 Y88.719 E3.6078
M73 P1 R77
G1 X208.568 Y89.505 E.05338
M73 P1 R77
G1 X170.223 Y51.16 E3.68329
G1 X169.437 Y51.16 E.05338
G1 X208.568 Y90.291 E3.75878
G1 X208.568 Y91.077 E.05338
G1 X168.651 Y51.16 E3.83427
G1 X167.865 Y51.16 E.05338
G1 X208.568 Y91.863 E3.90976
G1 X208.568 Y92.648 E.05338
G1 X167.079 Y51.16 E3.98524
G1 X166.293 Y51.16 E.05338
G1 X208.568 Y93.434 E4.06073
G1 X208.568 Y94.22 E.05338
G1 X165.508 Y51.16 E4.13622
G1 X164.722 Y51.16 E.05338
G1 X208.568 Y95.006 E4.21171
G1 X208.568 Y95.792 E.05338
G1 X163.936 Y51.16 E4.2872
G1 X163.15 Y51.16 E.05338
G1 X208.568 Y96.578 E4.36268
G1 X208.568 Y97.364 E.05338
G1 X162.364 Y51.16 E4.43817
M73 P2 R77
G1 X161.578 Y51.16 E.05338
M73 P2 R77
G1 X208.568 Y98.149 E4.51366
G1 X208.568 Y98.935 E.05338
G1 X160.792 Y51.16 E4.58915
G1 X160.006 Y51.16 E.05338
G1 X208.568 Y99.721 E4.66464
G1 X208.568 Y100.507 E.05338
G1 X159.221 Y51.16 E4.74012
G1 X158.435 Y51.16 E.05338
G1 X208.568 Y101.293 E4.81561
G1 X208.568 Y102.079 E.05338
G1 X157.649 Y51.16 E4.8911
G1 X156.863 Y51.16 E.05338
G1 X208.568 Y102.865 E4.96659
G1 X208.568 Y103.651 E.05338
G1 X156.077 Y51.16 E5.04208
G1 X155.291 Y51.16 E.05338
G1 X208.568 Y104.436 E5.11756
G1 X208.568 Y105.222 E.05338
G1 X154.505 Y51.16 E5.19305
G1 X153.719 Y51.16 E.05338
G1 X208.568 Y106.008 E5.26854
G1 X208.568 Y106.794 E.05338
G1 X152.934 Y51.16 E5.34403
G1 X152.148 Y51.16 E.05338
G1 X208.568 Y107.58 E5.41952
G1 X208.568 Y108.366 E.05338
G1 X151.362 Y51.16 E5.495
G1 X150.576 Y51.16 E.05338
G1 X208.568 Y109.152 E5.57049
G1 X208.568 Y109.937 E.05338
G1 X149.79 Y51.16 E5.64598
G1 X149.004 Y51.16 E.05338
G1 X208.568 Y110.723 E5.72147
G1 X208.568 Y111.509 E.05338
G1 X148.218 Y51.16 E5.79696
G1 X147.433 Y51.16 E.05338
G1 X208.568 Y112.295 E5.87244
G1 X208.568 Y113.081 E.05338
G1 X146.647 Y51.16 E5.94793
G1 X145.861 Y51.16 E.05338
G1 X208.568 Y113.867 E6.02342
G1 X208.568 Y114.653 E.05338
G1 X145.075 Y51.16 E6.09891
G1 X144.289 Y51.16 E.05338
G1 X208.568 Y115.438 E6.1744
G1 X208.568 Y116.224 E.05338
G1 X143.503 Y51.16 E6.24988
G1 X142.717 Y51.16 E.05338
G1 X208.568 Y117.01 E6.32537
G1 X208.568 Y117.796 E.05338
G1 X141.931 Y51.16 E6.40086
G1 X141.146 Y51.16 E.05338
G1 X208.568 Y118.582 E6.47635
G1 X208.568 Y119.368 E.05338
G1 X140.36 Y51.16 E6.55184
G1 X139.574 Y51.16 E.05338
G1 X208.568 Y120.154 E6.62732
G1 X208.568 Y120.94 E.05338
G1 X138.788 Y51.16 E6.70281
G1 X138.002 Y51.16 E.05338
G1 X208.568 Y121.725 E6.7783
G1 X208.568 Y122.511 E.05338
G1 X137.216 Y51.16 E6.85379
M73 P3 R76
G1 X136.766 Y51.16 E.03058
M73 P3 R76
G1 X138.08 Y52.81 E.14327
G1 X208.568 Y123.297 E6.77079
G1 X208.568 Y124.083 E.05338
G1 X141.158 Y56.673 E6.47517
G1 X142.1 Y57.856 E.10268
G3 X142.268 Y58.569 I-1.059 J.626 E.05057
G1 X208.568 Y124.869 E6.36853
G1 X208.568 Y125.655 E.05338
G1 X142.079 Y59.166 E6.38668
G3 X141.757 Y59.63 I-1.448 J-.661 E.03856
G1 X208.568 Y126.441 E6.41762
G1 X208.568 Y127.226 E.05338
G1 X141.244 Y59.908 E6.46667
G3 X140.504 Y59.948 I-.525 J-2.828 E.05046
G1 X208.568 Y128.012 E6.53801
G1 X208.568 Y128.798 E.05338
G1 X139.718 Y59.948 E6.61349
G1 X138.932 Y59.948 E.05338
G1 X208.568 Y129.584 E6.68898
G1 X208.568 Y130.37 E.05338
G1 X138.146 Y59.948 E6.76447
G1 X137.36 Y59.948 E.05338
G1 X208.568 Y131.156 E6.83996
G1 X208.568 Y131.942 E.05338
G1 X136.574 Y59.948 E6.91544
G1 X135.789 Y59.948 E.05338
G1 X208.568 Y132.727 E6.99093
G1 X208.568 Y133.513 E.05338
G1 X135.003 Y59.948 E7.06642
G1 X134.217 Y59.948 E.05338
G1 X208.568 Y134.299 E7.14191
G1 X208.568 Y135.085 E.05338
G1 X133.431 Y59.948 E7.21739
G1 X132.645 Y59.948 E.05338
G1 X208.568 Y135.871 E7.29288
G1 X208.568 Y136.657 E.05338
G1 X131.859 Y59.948 E7.36837
G1 X131.073 Y59.948 E.05338
G1 X208.568 Y137.443 E7.44385
G1 X208.568 Y138.228 E.05338
G1 X130.288 Y59.948 E7.51934
G1 X129.502 Y59.948 E.05338
G1 X208.568 Y139.014 E7.59483
G1 X208.568 Y139.8 E.05338
G1 X128.716 Y59.948 E7.67032
G1 X127.93 Y59.948 E.05338
G1 X208.568 Y140.586 E7.74581
G1 X208.568 Y141.372 E.05338
G1 X127.144 Y59.948 E7.82129
G1 X126.358 Y59.948 E.05338
G1 X208.568 Y142.158 E7.89678
G1 X208.568 Y142.944 E.05338
G1 X125.572 Y59.948 E7.97227
M73 P4 R76
G1 X124.786 Y59.948 E.05338
M73 P4 R76
G1 X208.568 Y143.73 E8.04775
G1 X208.568 Y144.515 E.05338
G1 X124.001 Y59.948 E8.12324
G1 X123.215 Y59.948 E.05338
G1 X208.568 Y145.301 E8.19873
G1 X208.568 Y146.087 E.05338
G1 X122.429 Y59.948 E8.27422
G1 X121.643 Y59.948 E.05338
G1 X208.568 Y146.873 E8.3497
G1 X208.568 Y147.659 E.05338
G1 X120.857 Y59.948 E8.42519
M73 P4 R75
G1 X120.071 Y59.948 E.05338
M73 P4 R75
G1 X208.568 Y148.445 E8.50068
G1 X208.568 Y149.231 E.05338
G1 X119.285 Y59.948 E8.57617
G1 X118.5 Y59.948 E.05338
G1 X208.568 Y150.016 E8.65165
G1 X208.568 Y150.802 E.05338
G1 X117.714 Y59.948 E8.72714
G1 X116.928 Y59.948 E.05338
