; HEADER_BLOCK_START
; generated by Creality_Print V6.1.0.2041 on 2025-04-23 at 08:58:43
; total layer number: 296
; filament_density: 1.24
; filament_diameter: 1.75
; max_z_height: 60.30
; HEADER_BLOCK_END

; MINX = 80.00
; MINY = 80.00
; MINZ = 0.00
; MAXX = 140.00
; MAXY = 140.00
; MAXZ = 60.39

; THUMBNAIL_BLOCK_START

;
; THUMBNAIL_BLOCK_END

; THUMBNAIL_BLOCK_START

;
; THUMBNAIL_BLOCK_END

; external perimeters extrusion width = 0.62mm
; perimeters extrusion width = 0.62mm
; infill extrusion width = 0.62mm
; solid infill extrusion width = 0.62mm
; top infill extrusion width = 0.62mm
; support material extrusion width = 0.62mm
; first layer extrusion width = 0.62mm

; EXECUTABLE_BLOCK_START
EXCLUDE_OBJECT_DEFINE NAME=S_Cleaning.stl_id_0_copy_0 CENTER=110,110 POLYGON=[[114.402,80.325],[117.289,80.899],[120.106,81.754],[122.826,82.881],[125.422,84.268],[127.87,85.904],[130.145,87.772],[132.227,89.853],[134.094,92.129],[135.73,94.577],[137.117,97.174],[138.244,99.894],[139.098,102.711],[139.673,105.598],[139.961,108.528],[139.961,111.472],[139.673,114.402],[139.098,117.29],[138.244,120.107],[137.117,122.827],[135.73,125.423],[134.094,127.871],[132.227,130.147],[130.145,132.229],[127.87,134.096],[125.422,135.732],[122.826,137.12],[120.106,138.247],[117.289,139.101],[114.402,139.676],[111.472,139.964],[108.529,139.964],[105.599,139.676],[102.712,139.101],[99.735,138.191],[97.175,137.12],[94.579,135.732],[92.131,134.096],[89.856,132.229],[87.774,130.147],[85.907,127.871],[84.271,125.423],[82.884,122.827],[81.757,120.107],[80.902,117.29],[80.328,114.402],[80.04,111.472],[80.04,108.528],[80.328,105.598],[80.902,102.711],[81.757,99.894],[82.884,97.174],[84.271,94.577],[85.907,92.129],[87.774,89.853],[89.856,87.772],[92.131,85.904],[94.579,84.268],[97.175,82.881],[99.735,81.809],[102.712,80.899],[105.599,80.325],[108.529,80.036],[111.472,80.036],[114.402,80.325]]
M73 P0 R32
M106 S0
M106 P2 S0
;TYPE:Custom
M141 S35;set chamber_temperature
START_PRINT EXTRUDER_TEMP=210 BED_TEMP=50
T0
M204 S2000
M104 S210
G1 Z3 F600
M83
G92 E0
G1 Z1 F600
G90
G21
M83 ; use relative distances for extrusion
SET_PRESSURE_ADVANCE ADVANCE=0.026; Override pressure advance value
G1 E-1.2 F2400
M106 S0
;LAYER_CHANGE
;Z:0.3
;HEIGHT:0.3
;BEFORE_LAYER_CHANGE
;0.3
G92 E0

;AFTER_LAYER_CHANGE
;0.3
;_SET_FAN_SPEED_CHANGING_LAYER
SET_VELOCITY_LIMIT ACCEL=500 ACCEL_TO_DECEL=250
SET_VELOCITY_LIMIT SQUARE_CORNER_VELOCITY=12
EXCLUDE_OBJECT_START NAME=S_Cleaning.stl_id_0_copy_0
G1 Z.4 F30000
G1 X73.063 Y112.914
G1 Z.3
G1 E1.2 F1800
;TYPE:Support
;WIDTH:0.62
G1 F2400
G1 X73.149 Y114.676 E.11982
G3 X73.063 Y112.914 I.082 J-.887 E.17301
G1 X73.666 Y112.611 F30000
G1 F2400
G2 X73.777 Y114.873 I-.633 J1.165 E.38124
G1 X73.666 Y112.611 E.15386
G1 X74.268 Y112.281 F30000
G1 F2400
G1 X74.408 Y115.139 E.19434
G3 X74.268 Y112.281 I-1.378 J-1.365 E.6091
G1 X74.871 Y111.979 F30000
G1 F2400
G2 X75.06 Y115.315 I-1.806 J1.776 E.83301
G1 X74.871 Y111.979 E.22692
G1 X75.478 Y111.746 F30000
G1 F2400
G1 X75.642 Y115.097 E.22786
G3 X75.357 Y115.956 I-.502 J.31 E.07007
G3 X75.478 Y111.746 I-2.329 J-2.174 E1.04698
G1 X76.086 Y111.532 F30000
G1 F2400
G1 X76.398 Y115.574 E.27535
G3 X76.086 Y111.532 I-3.36 J-1.773 E1.3309
G1 X76.693 Y111.318 F30000
G1 F2400
G2 X77.041 Y115.599 I-3.682 J2.454 E1.58354
G1 X76.869 Y114.915 E.04793
G1 X76.693 Y111.318 E.24459
G1 X77.301 Y111.104 F30000
G1 F2400
G1 X77.483 Y114.824 E.25295
G1 X77.688 Y115.642 E.05728
G3 X77.301 Y111.104 I-4.677 J-1.887 E1.83101
G1 X77.908 Y110.89 F30000
G1 F2400
G1 X78.097 Y114.733 E.26132
G3 X78.01 Y116.507 I-1.28 J.826 E.1288
G3 X77.908 Y110.89 I-4.963 J-2.72 E2.01589
G1 X78.516 Y110.676 F30000
G1 F2400
G1 X78.71 Y114.642 E.26968
G1 X78.982 Y115.727 E.07599
G3 X78.516 Y110.676 I-5.958 J-1.997 E2.32663
G1 X79.125 Y110.492 F30000
G1 F2400
G1 X79.324 Y114.551 E.27596
G1 X79.629 Y115.77 E.08535
G3 X79.125 Y110.492 I-6.586 J-2.034 E2.57149
G1 X75.324 Y106.698 F30000
G1 F2400
G3 X79.542 Y110.187 I-2.894 J7.792 E.37879
G1 X79.821 Y114.477 E.29201
G1 X80.154 Y115.804 E.09293
G3 X75.243 Y106.682 I-7.109 J-2.056 E2.37844
G1 E-1.08
;WIPE_START
G1 X73.494 Y106.349 E-.10681
G1 X73.275 Y106.362 E-.01319
;WIPE_END
G1 X80.892 Y105.889 Z.7 F30000
G1 X137.944 Y102.346 Z.7
G1 Z.3
G1 E1.2 F1800
;TYPE:Inner wall
;WIDTH:0.62
G1 F2400
G1 X138.106 Y102.959 E.04307
G3 X138.952 Y108.804 I-28.127 J7.053 E.40175
G3 X108.574 Y81.051 I-28.954 J1.191 E9.25855
G3 X111.422 Y81.051 I1.429 J38.845 E.19348
G3 X137.727 Y101.589 I-1.443 J28.962 E2.41498
G1 X137.927 Y102.289 E.04943
G1 X138.271 Y101.444 F30000
;TYPE:Outer wall
G1 F2400
G1 X138.645 Y102.824 E.09713
G3 X139.507 Y108.79 I-28.666 J7.188 E.41008
G3 X108.55 Y80.496 I-29.51 J1.205 E9.43568
M73 P1 R32
G3 X111.449 Y80.496 I1.452 J39.545 E.19696
M73 P1 R32
G3 X138.247 Y101.39 I-1.471 J29.517 E2.4586
G1 E-1.08
;WIPE_START
G1 X138.645 Y102.824 E-.08932
G1 X138.76 Y103.323 E-.03068
;WIPE_END
G1 X131.286 Y104.874 Z.7 F30000
G1 X120.211 Y107.172 Z.7
G1 Z.3
G1 E1.2 F1800
;TYPE:Inner wall
G1 F2400
G1 X120.392 Y107.59 E.03089
G1 X120.496 Y108.069 E.0333
G1 X120.493 Y108.641 E.03887
G1 X120.416 Y109.05 E.02826
G3 X117.79 Y110.863 I-2.448 J-.737 E.23406
G3 X115.804 Y109.583 I.269 J-2.598 E.16651
G1 X115.605 Y109.125 E.0339
G1 X115.502 Y108.645 E.03337
G1 X115.494 Y108.149 E.03365
G3 X116.029 Y106.797 I2.808 J.329 E.09991
G1 X116.374 Y106.44 E.03368
G1 X116.778 Y106.161 E.03336
G1 X117.232 Y105.964 E.03363
G1 X117.713 Y105.861 E.0334
G1 X118.208 Y105.853 E.03362
G3 X119.599 Y106.423 I-.314 J2.75 E.10338
G1 X119.917 Y106.732 E.03015
G1 X120.184 Y107.119 E.03193
G1 X119.47 Y107.063 F30000
;TYPE:Outer wall
G1 F2400
G1 X119.767 Y107.53 E.03761
G1 X119.933 Y108.044 E.0367
G1 X119.944 Y108.56 E.03505
G1 X119.893 Y108.862 E.02076
G1 X119.693 Y109.329 E.03454
G3 X116.305 Y109.343 I-1.698 J-.983 E.27773
G3 X117.741 Y106.416 I1.695 J-.984 E.26149
G1 X118.268 Y106.424 E.03578
G1 X118.775 Y106.562 E.03573
G1 X119.226 Y106.835 E.0358
G1 X119.426 Y107.022 E.01857
G1 E-1.08
;WIPE_START
G1 X119.767 Y107.53 E-.03673
G1 X119.933 Y108.044 E-.03243
G1 X119.944 Y108.56 E-.03096
G1 X119.893 Y108.862 E-.01834
G1 X119.883 Y108.885 E-.00155
;WIPE_END
G1 X112.504 Y110.835 Z.7 F30000
G1 X101.758 Y113.673 Z.7
G1 Z.3
G1 E1.2 F1800
;TYPE:Inner wall
G1 F2400
G1 X101.773 Y113.665 E.00116
G3 X104.141 Y113.623 I1.223 J2.199 E.16746
G1 X104.556 Y113.89 E.03349
G1 X104.913 Y114.235 E.03368
G1 X105.192 Y114.639 E.03336
G1 X105.389 Y115.093 E.03362
G1 X105.492 Y115.573 E.03337
G1 X105.5 Y116.069 E.03365
G3 X105.061 Y117.292 I-2.912 J-.355 E.08897
G1 X104.709 Y117.703 E.03678
G1 X104.283 Y118.022 E.03614
G1 X103.771 Y118.251 E.0381
G1 X103.284 Y118.357 E.03383
G1 X102.79 Y118.366 E.03357
G1 X102.303 Y118.277 E.03361
G3 X101.077 Y117.486 I.869 J-2.691 E.10023
G1 X100.799 Y117.083 E.03326
G1 X100.601 Y116.629 E.03361
G1 X100.498 Y116.149 E.03333
G1 X100.489 Y115.654 E.03359
G1 X100.578 Y115.169 E.03352
G3 X101.371 Y113.944 I2.419 J.696 E.10056
G1 X101.709 Y113.708 E.02802
G1 X101.658 Y114.426 F30000
;TYPE:Outer wall
G1 F2400
G1 X102.011 Y114.166 E.02978
G3 X104.585 Y117.005 I.983 J1.695 E.36202
G1 X104.29 Y117.331 E.02981
G3 X102.492 Y117.754 I-1.316 J-1.556 E.13026
G1 X102.024 Y117.554 E.03458
G3 X101.101 Y115.357 I.996 J-1.711 E.17364
G1 X101.325 Y114.849 E.03775
G1 X101.621 Y114.473 E.03249
G1 E-1.08
;WIPE_START
G1 X102.011 Y114.166 E-.0298
G1 X102.361 Y114.005 E-.02309
G1 X102.737 Y113.918 E-.02316
G1 X103.12 Y113.904 E-.02303
G1 X103.464 Y113.961 E-.02092
;WIPE_END
G1 X102.849 Y106.354 Z.7 F30000
G1 X102.211 Y98.469 Z.7
G1 Z.3
G1 E1.2 F1800
;TYPE:Inner wall
G1 F2400
G1 X102.226 Y98.462 E.00116
G1 X102.706 Y98.359 E.03336
G1 X103.201 Y98.35 E.03357
G1 X103.686 Y98.439 E.03351
G3 X105.232 Y102.002 I-.696 J2.419 E.30131
G1 X104.965 Y102.417 E.03349
G1 X104.543 Y102.831 E.04017
G1 X104.216 Y103.053 E.0268
G1 X103.762 Y103.25 E.03362
G1 X103.282 Y103.353 E.03337
G1 X102.786 Y103.361 E.03365
G3 X101.434 Y102.826 I.329 J-2.809 E.09991
G1 X101.077 Y102.481 E.03368
G1 X100.798 Y102.077 E.03336
G1 X100.602 Y101.624 E.03353
G1 X100.498 Y101.145 E.0333
G1 X100.498 Y100.591 E.03763
G1 X100.579 Y100.162 E.02965
G1 X100.801 Y99.638 E.03864
G1 X101.025 Y99.295 E.02785
G1 X101.369 Y98.938 E.03367
G1 X101.772 Y98.66 E.03326
G1 X102.155 Y98.493 E.02837
G1 X101.965 Y99.189 F30000
;TYPE:Outer wall
G1 F2400
G1 X102.36 Y99.002 E.02968
G3 X104.553 Y102.045 I.624 J1.862 E.33867
G1 X104.213 Y102.384 E.03265
G3 X101.3 Y101.839 I-1.218 J-1.548 E.22777
G3 X101.101 Y100.351 I1.775 J-.995 E.10449
G1 X101.277 Y99.924 E.03135
G1 X101.578 Y99.512 E.03464
G1 X101.919 Y99.227 E.03017
G1 E-1.08
;WIPE_START
G1 X102.36 Y99.002 E-.02972
G1 X102.735 Y98.914 E-.02307
G1 X103.119 Y98.9 E-.02309
G1 X103.497 Y98.962 E-.023
G1 X103.827 Y99.085 E-.02111
;WIPE_END
G1 X111.267 Y97.384 Z.7 F30000
G1 X132.845 Y92.451 Z.7
G1 Z.3
G1 E1.2 F1800
;TYPE:Bottom surface
;WIDTH:0.624447
G1 F3600
G1 X130.133 Y89.739 E.26255
G2 X125.815 Y86.213 I-21.153 J21.498 E.38219
G1 X133.784 Y94.181 E.77145
G3 X134.993 Y96.182 I-19.537 J13.169 E.1601
G1 X123.815 Y85.004 E1.08216
G1 X123.466 Y84.807 E.02745
G1 X122.18 Y84.161 E.0985
G1 X135.835 Y97.817 E1.32201
G1 X136.45 Y99.224 E.10514
G1 X120.773 Y83.546 E1.51778
G1 X119.495 Y83.061 E.09359
G1 X136.936 Y100.502 E1.68856
G1 X137.327 Y101.685 E.08529
G1 X118.312 Y82.67 E1.84094
G1 X117.215 Y82.365 E.07794
G1 X137.631 Y102.781 E1.97657
G3 X137.879 Y103.821 I-10.607 J3.08 E.07323
G1 X116.176 Y82.117 E2.10122
G2 X115.18 Y81.914 I-2.598 J10.182 E.06957
G1 X138.084 Y104.817 E2.21734
G1 X138.25 Y105.776 E.06661
G1 X114.222 Y81.747 E2.32628
G2 X113.317 Y81.634 I-1.594 J9.08 E.06247
G1 X138.363 Y106.681 E2.42485
G3 X138.454 Y107.564 I-8.943 J1.365 E.06077
G1 X112.434 Y81.544 E2.5191
G1 X111.578 Y81.48 E.05873
G1 X138.517 Y108.419 E2.60802
G3 X138.546 Y109.24 I-8.358 J.705 E.05626
G1 X110.757 Y81.451 E2.69029
G2 X109.969 Y81.455 I-.337 J11.751 E.05397
G1 X138.563 Y110.049 E2.76828
G1 X138.544 Y110.822 E.05294
G1 X109.184 Y81.462 E2.84245
G2 X108.411 Y81.481 I-.242 J5.951 E.05299
G1 X138.516 Y111.587 E2.91462
M73 P1 R31
G1 X138.462 Y112.324 E.05064
M73 P1 R31
G1 X107.673 Y81.536 E2.98075
G2 X106.948 Y81.602 I.319 J7.505 E.04991
G1 X138.396 Y113.051 E3.04465
G1 X138.309 Y113.756 E.04864
G1 X106.243 Y81.689 E3.10451
M73 P2 R31
G2 X105.549 Y81.787 I.651 J7.067 E.04797
M73 P2 R31
G1 X138.211 Y114.449 E3.16212
G1 X138.094 Y115.124 E.04689
G1 X104.874 Y81.905 E3.2161
G2 X104.209 Y82.031 I.969 J6.902 E.04639
G1 X137.967 Y115.79 E3.26827
G1 X137.822 Y116.436 E.04538
G1 X103.562 Y82.176 E3.31683
G2 X102.921 Y82.327 I1.201 J6.53 E.0451
G1 X137.671 Y117.077 E3.36426
G1 X137.499 Y117.698 E.04408
G1 X102.301 Y82.499 E3.40772
G2 X101.681 Y82.672 I1.456 J6.405 E.04402
G1 X137.327 Y118.318 E3.45095
G1 X137.13 Y118.913 E.04292
G1 X101.086 Y82.869 E3.48954
G1 X100.491 Y83.066 E.04292
G1 X136.933 Y119.508 E3.52813
G3 X136.718 Y120.084 I-5.986 J-1.914 E.04214
G1 X99.915 Y83.282 E3.56301
G1 X99.343 Y83.502 E.04194
G1 X136.497 Y120.656 E3.597
G3 X136.265 Y121.216 I-5.787 J-2.073 E.04151
G1 X98.783 Y83.734 E3.62869
G1 X98.235 Y83.978 E.04109
G1 X136.021 Y121.764 E3.65825
G3 X135.774 Y122.309 I-5.688 J-2.254 E.04097
G1 X97.69 Y84.225 E3.68704
G1 X97.163 Y84.49 E.04038
G1 X118.102 Y105.429 E2.02717
G2 X117.382 Y105.501 I-.093 J2.706 E.04968
G1 X96.636 Y84.756 E2.00847
G2 X96.127 Y85.038 I2.644 J5.378 E.03991
G1 X116.79 Y105.702 E2.00054
G1 X116.448 Y105.869 E.02611
G1 X116.288 Y105.992 E.01377
G1 X95.621 Y85.324 E2.00088
G2 X95.123 Y85.619 I2.716 J5.155 E.0396
G1 X115.866 Y106.362 E2.0082
G1 X115.613 Y106.653 E.02642
G1 X115.522 Y106.81 E.01241
G1 X94.638 Y85.926 E2.02183
G1 X94.154 Y86.233 E.03929
G1 X115.262 Y107.341 E2.04356
G2 X115.105 Y107.977 I1.53 J.713 E.0451
G1 X93.688 Y86.559 E2.0735
G1 X93.223 Y86.887 E.03891
G1 X115.434 Y109.097 E2.15026
G1 E-1.08 F2400
;WIPE_START
G1 F3600
G1 X114.019 Y107.683 E-.12
;WIPE_END
G1 X120.65 Y107.977 Z.7 F30000
G1 Z.3
G1 E1.2 F1800
M73 P3 R31
G1 F3600
M73 P3 R31
G1 X135.509 Y122.836 E1.43853
G1 X135.244 Y123.363 E.04038
G1 X120.859 Y108.978 E1.39261
G1 X120.845 Y109.073 E.00658
G1 X120.662 Y109.574 E.03646
G1 X134.962 Y123.873 E1.38434
G1 X134.675 Y124.379 E.03979
G1 X120.375 Y110.078 E1.38446
G1 X120.002 Y110.497 E.0384
G1 X134.381 Y124.876 E1.39209
G1 X134.074 Y125.361 E.03929
G1 X119.553 Y110.84 E1.40582
G1 X119.025 Y111.104 E.04042
G1 X133.767 Y125.846 E1.42722
G3 X133.44 Y126.312 I-4.917 J-3.097 E.03895
G1 X118.387 Y111.258 E1.45736
G1 X117.874 Y111.29 E.03515
G1 X117.583 Y111.246 E.0202
G1 X133.113 Y126.777 E1.50355
G3 X132.776 Y127.232 I-4.806 J-3.205 E.03878
G1 X105.877 Y100.332 E2.60422
G1 X105.751 Y99.849 E.03417
G1 X105.502 Y99.332 E.03931
G1 X105.16 Y98.876 E.039
G1 X104.747 Y98.503 E.03816
G1 X104.257 Y98.208 E.03911
G2 X103.522 Y97.977 I-1.195 J2.516 E.05293
G1 X92.768 Y87.224 E1.04108
G1 X92.323 Y87.571 E.03863
G1 X102.703 Y97.951 E1.00491
G1 X102.49 Y97.968 E.01466
G1 X102.043 Y98.083 E.03158
G1 X91.879 Y87.919 E.98403
G1 X91.454 Y88.285 E.03844
G1 X101.502 Y98.334 E.97279
G1 X101.043 Y98.667 E.03882
G1 X91.028 Y88.652 E.96952
G2 X90.613 Y89.029 I3.667 J4.463 E.0384
G1 X100.664 Y99.08 E.97311
G1 X100.363 Y99.571 E.03942
G1 X90.207 Y89.415 E.98324
G1 X89.801 Y89.801 E.03835
G1 X100.148 Y100.148 E1.00176
G1 X100.064 Y100.716 E.0393
G1 X100.071 Y100.863 E.01006
G1 X89.238 Y90.03 E1.0488
G1 E-1.08 F2400
;WIPE_START
G1 F3600
G1 X90.652 Y91.444 E-.12
;WIPE_END
G1 X97.107 Y95.517 Z.7 F30000
G1 X105.675 Y100.923 Z.7
G1 Z.3
G1 E1.2 F1800
G1 F3600
G1 X132.429 Y127.677 E2.59015
G1 X132.082 Y128.121 E.03863
G1 X105.758 Y101.797 E2.54853
G3 X105.508 Y102.34 I-1.499 J-.359 E.04115
G1 X131.715 Y128.547 E2.53716
G1 X131.348 Y128.972 E.03845
G1 X105.175 Y102.798 E2.53399
G3 X104.762 Y103.178 I-1.134 J-.819 E.03864
G1 X130.972 Y129.388 E2.53747
G1 X130.585 Y129.793 E.03835
G1 X104.273 Y103.481 E2.54738
G3 X103.692 Y103.692 I-.821 J-1.361 E.04261
G1 X130.198 Y130.2 E2.56627
G1 X129.793 Y130.585 E.03826
G1 X102.721 Y103.513 E2.62098
G1 E-1.08 F2400
;WIPE_START
G1 F3600
G1 X104.135 Y104.927 E-.12
;WIPE_END
G1 X98.597 Y99.676 Z.7 F30000
G1 X88.852 Y90.436 Z.7
G1 Z.3
G1 E1.2 F1800
G1 F3600
G1 X100.229 Y101.813 E1.10147
G1 X100.464 Y102.339 E.03943
G1 X100.834 Y102.841 E.04268
G1 X101.271 Y103.229 E.04001
G1 X101.765 Y103.519 E.03924
G1 X102.025 Y103.609 E.01879
G1 X129.388 Y130.972 E2.64913
G3 X128.973 Y131.349 I-4.009 J-4.001 E.0384
G1 X88.652 Y91.028 E3.90358
G1 X88.285 Y91.453 E.03844
G1 X128.547 Y131.716 E3.89793
G1 X128.122 Y132.082 E.03844
G1 X87.918 Y91.879 E3.89228
G1 X87.571 Y92.324 E.03863
M73 P4 R31
G1 X127.677 Y132.43 E3.8828
M73 P4 R31
G1 X127.232 Y132.777 E.03863
G1 X87.224 Y92.769 E3.87331
G2 X86.888 Y93.224 I4.523 J3.697 E.03878
G1 X126.777 Y133.114 E3.86185
G1 X126.313 Y133.441 E.03891
G1 X86.56 Y93.689 E3.84855
G2 X86.234 Y94.155 I4.586 J3.559 E.03895
G1 X125.847 Y133.767 E3.83505
G1 X125.362 Y134.075 E.03929
G1 X85.927 Y94.64 E3.81784
G1 X85.62 Y95.124 E.03929
G1 X103.471 Y112.976 E1.72823
G1 X103.676 Y113.008 E.01422
G1 X104.222 Y113.196 E.03953
G1 X104.719 Y113.487 E.03941
G1 X105.145 Y113.864 E.03894
G1 X105.495 Y114.326 E.03971
G1 X105.746 Y114.842 E.03925
G1 X105.89 Y115.395 E.03913
G1 X124.877 Y134.382 E1.83819
G3 X124.38 Y134.676 I-3.251 J-4.92 E.03959
G1 X105.896 Y116.193 E1.78945
G3 X105.747 Y116.835 I-1.704 J-.058 E.04545
G1 X123.874 Y134.963 E1.75499
G3 X123.365 Y135.245 I-3.121 J-5.031 E.0399
G1 X105.491 Y117.372 E1.73038
G3 X105.155 Y117.828 I-1.333 J-.631 E.03902
G1 X122.838 Y135.511 E1.71193
G1 X122.311 Y135.776 E.04038
G1 X104.736 Y118.201 E1.70151
G3 X104.243 Y118.5 I-.964 J-1.034 E.03975
G1 X121.766 Y136.023 E1.69652
G1 X121.218 Y136.267 E.04109
G1 X103.654 Y118.703 E1.7004
G1 X103.388 Y118.767 E.01869
G1 X102.947 Y118.788 E.03028
G1 X120.851 Y136.692 E1.73341
G1 E-1.08 F2400
;WIPE_START
G1 F3600
G1 X119.437 Y135.278 E-.12
;WIPE_END
G1 X114.861 Y129.169 Z.7 F30000
G1 X102.893 Y113.189 Z.7
G1 Z.3
G1 E1.2 F1800
G1 F3600
G1 X85.325 Y95.622 E1.70077
G1 X85.039 Y96.127 E.03978
G1 X102.011 Y113.099 E1.64311
