; HEADER_BLOCK_START
; generated by Creality_Print V6.1.0.2041 on 2025-04-23 at 08:56:37
; total layer number: 38
; filament_density: 1.24
; filament_diameter: 1.75
; max_z_height: 11.40
; HEADER_BLOCK_END

; MINX = 81.00
; MINY = 81.00
; MINZ = 0.00
; MAXX = 139.00
; MAXY = 139.00
; MAXZ = 11.33

; THUMBNAIL_BLOCK_START

;
; THUMBNAIL_BLOCK_END

; THUMBNAIL_BLOCK_START

;
; THUMBNAIL_BLOCK_END

; external perimeters extrusion width = 0.62mm
; perimeters extrusion width = 0.62mm
; infill extrusion width = 0.62mm
; solid infill extrusion width = 0.62mm
; top infill extrusion width = 0.62mm
; support material extrusion width = 0.62mm
; first layer extrusion width = 0.62mm

; EXECUTABLE_BLOCK_START
EXCLUDE_OBJECT_DEFINE NAME=S_Flux_Holder.stl_id_0_copy_0 CENTER=110,110 POLYGON=[[114.255,81.314],[117.046,81.869],[119.77,82.695],[122.399,83.784],[124.909,85.126],[127.275,86.707],[129.475,88.512],[131.488,90.525],[133.293,92.725],[134.874,95.091],[136.216,97.601],[137.305,100.23],[138.131,102.954],[138.686,105.745],[138.965,108.577],[138.965,111.423],[138.686,114.255],[138.131,117.046],[137.305,119.77],[136.216,122.399],[134.874,124.909],[133.293,127.275],[131.488,129.475],[129.475,131.488],[127.275,133.293],[124.909,134.874],[122.399,136.216],[119.77,137.305],[117.046,138.131],[114.255,138.686],[111.423,138.965],[108.577,138.965],[105.745,138.686],[102.954,138.131],[100.23,137.305],[97.601,136.216],[95.091,134.874],[92.725,133.293],[90.525,131.488],[88.512,129.475],[86.707,127.275],[85.126,124.909],[83.784,122.399],[82.695,119.77],[81.869,117.046],[81.314,114.255],[81.035,111.423],[81.035,108.577],[81.314,105.745],[81.869,102.954],[82.695,100.23],[83.784,97.601],[85.126,95.091],[86.707,92.725],[88.512,90.525],[90.525,88.512],[92.725,86.707],[95.091,85.126],[97.601,83.784],[100.23,82.695],[102.954,81.869],[105.745,81.314],[108.577,81.035],[111.423,81.035],[114.255,81.314]]
M73 P0 R10
M106 S0
M106 P2 S0
;TYPE:Custom
M141 S35;set chamber_temperature
START_PRINT EXTRUDER_TEMP=210 BED_TEMP=50
T0
M204 S2000
M104 S210
G1 Z3 F600
M83
G92 E0
G1 Z1 F600
G90
G21
M83 ; use relative distances for extrusion
SET_PRESSURE_ADVANCE ADVANCE=0.026; Override pressure advance value
G1 E-1.2 F2400
M106 S0
;LAYER_CHANGE
;Z:0.3
;HEIGHT:0.3
;BEFORE_LAYER_CHANGE
;0.3
G92 E0

;AFTER_LAYER_CHANGE
;0.3
;_SET_FAN_SPEED_CHANGING_LAYER
SET_VELOCITY_LIMIT ACCEL=500 ACCEL_TO_DECEL=250
SET_VELOCITY_LIMIT SQUARE_CORNER_VELOCITY=12
EXCLUDE_OBJECT_START NAME=S_Flux_Holder.stl_id_0_copy_0
G1 Z.4 F30000
G1 X81.768 Y100.562
G1 Z.3
G1 E1.2 F1800
;TYPE:Support
;WIDTH:0.62
G1 F2400
G3 X82.217 Y99.366 I1.21 J-.228 E.09122
G1 X82.586 Y99.605 E.02991
G1 X82.22 Y100.63 E.07394
G1 X81.768 Y100.562 E.03105
G1 X83.377 Y96.474 F30000
G1 F2400
G1 X83.821 Y96.659 E.03265
G1 X84.911 Y94.841 E.14398
G1 X84.596 Y94.534 E.02984
G2 X83.86 Y95.623 I.59 J1.193 E.09336
G2 X83.377 Y96.474 I.826 J1.03 E.06807
G1 X86.025 Y92.804 F30000
G1 F2400
G1 X87.801 Y90.844 E.1796
G1 X87.586 Y90.49 E.02813
G2 X86.831 Y90.99 I.204 J1.127 E.06322
G2 X86.025 Y92.804 I.015 J1.093 E.16899
G1 X89.245 Y89.251 F30000
G1 F2400
G3 X89.718 Y87.44 I1.359 J-.612 E.1374
G2 X91.222 Y86.866 I-3.49 J-11.39 E.10944
G1 X91.425 Y87.281 E.03139
G2 X89.245 Y89.251 I3.859 J6.465 E.20087
G1 X93.035 Y86.087 F30000
G1 F2400
G3 X93.535 Y84.471 I2.036 J-.255 E.1184
G2 X94.448 Y83.891 I-.686 J-2.085 E.0742
G3 X96.11 Y84.144 I.696 J1.016 E.12566
G2 X93.035 Y86.087 I3.351 J8.703 E.24862
G1 X97.996 Y82.751 F30000
G1 F2400
G1 X98.267 Y83.123 E.03125
G3 X100.966 Y82.044 I4.062 J6.245 E.19871
G2 X99.101 Y81.68 I-1.169 J1.026 E.13888
G3 X97.996 Y82.751 I-7.038 J-6.149 E.10465
G1 X103.078 Y81.023 F30000
G1 F2400
G1 X103.26 Y81.47 E.03277
G1 X105.164 Y80.993 E.13331
G1 X105.093 Y80.497 E.03401
G2 X103.078 Y81.023 I.179 J4.812 E.14256
G1 X106.254 Y82.572 F30000
G1 F2400
G1 X100.664 Y83.908 E.39033
G1 X98.159 Y85.093 E.18824
G2 X94.052 Y87.493 I5.329 J13.834 E.32442
G1 X91.39 Y89.467 E.22512
G2 X83.056 Y103.69 I20.053 J21.303 E1.13489
G1 X82.321 Y108.64 E.33988
G1 X82.588 Y114.066 E.36894
G1 X83.908 Y119.336 E.36891
G1 X86.231 Y124.246 E.36893
G1 X87.861 Y126.445 E.1859
G2 X93.813 Y132.45 I21.008 J-14.867 E.57681
M73 P1 R10
G1 X97.634 Y134.741 E.30257
M73 P1 R10
G2 X98.794 Y135.281 I1.937 J-2.645 E.08745
G1 X103.266 Y136.881 E.3226
G1 X108.64 Y137.679 E.36897
G1 X114.066 Y137.412 E.36894
G2 X119.586 Y135.973 I-14.608 J-67.37 E.38752
G1 X124.246 Y133.769 E.35008
G1 X128.61 Y130.533 E.36898
G1 X132.258 Y126.508 E.36889
G1 X135.051 Y121.848 E.36896
G1 X135.333 Y121.061 E.05681
G2 X137.651 Y110.79 I-25.175 J-11.078 E.71951
G1 X137.555 Y108.851 E.13186
G2 X137.072 Y104.577 I-10.992 J-.921 E.29401
G1 X136.092 Y100.664 E.2739
G2 X133.711 Y95.675 I-395.829 J185.832 E.37544
G1 X130.533 Y91.39 E.36235
G1 X126.508 Y87.742 E.36889
G2 X121.342 Y84.768 I-40.993 J65.229 E.40496
G1 X116.733 Y83.118 E.33246
G1 X111.184 Y82.317 E.38071
M73 P1 R9
G1 X106.338 Y82.568 E.32961
M73 P1 R9
G1 X108.122 Y80.309 F30000
G1 F2400
G1 X108.245 Y80.732 E.02991
G1 X111.264 Y80.576 E.20534
G1 X112.789 Y80.796 E.10459
G1 X112.965 Y80.428 E.02771
G2 X111.039 Y79.725 I-1.418 J.895 E.14984
G2 X109.701 Y80.017 I-.438 J1.205 E.09814
G2 X108.122 Y80.309 I-.389 J2.312 E.11127
G1 X111.072 Y77.954 F30000
G1 F2400
G2 X109.092 Y78.318 I-.645 J2.057 E.14221
G2 X106.616 Y79.349 I.163 J3.879 E.18599
G2 X101.462 Y80.337 I-2.029 J3.354 E.39049
G2 X99.268 Y79.742 I-1.887 J2.62 E.15776
G2 X96.305 Y82.27 I1.88 J5.203 E.27032
G2 X93.288 Y82.578 I-1.281 J2.384 E.21862
G2 X91.446 Y85.149 I1.043 J2.692 E.22729
G2 X89.735 Y85.643 I-.138 J2.73 E.12323
G2 X87.471 Y88.727 I.312 J2.602 E.29121
G2 X86.033 Y89.308 I.314 J2.846 E.10669
G2 X84.221 Y92.86 I.853 J2.673 E.30116
G2 X82.395 Y94.459 I.893 J2.862 E.16971
G2 X81.871 Y97.622 I2.569 J2.051 E.2275
G2 X80.003 Y99.924 I.945 J2.676 E.21183
G2 X80.241 Y102.405 I3.348 J.931 E.17314
G2 X78.782 Y104.954 I1.29 J2.43 E.21033
G2 X79.597 Y108.084 I2.659 J.979 E.23376
G2 X79.26 Y112.834 I1.846 J2.518 E.36785
G2 X78.273 Y115.195 I2.623 J2.483 E.17767
G2 X80.153 Y118.167 I5.94 J-1.677 E.24217
G2 X80.008 Y121.318 I2.092 J1.676 E.22902
G2 X81.79 Y123.456 I2.704 J-.442 E.1983
G2 X82.374 Y126.227 I2.451 J.93 E.20317
G2 X85.234 Y128.093 I2.533 J-.757 E.25213
G1 X85.215 Y128.929 E.05678
M73 P2 R9
G2 X88.265 Y132.107 I2.724 J.438 E.34638
M73 P2 R9
G2 X89.019 Y133.723 I2.995 J-.413 E.12297
G2 X92.634 Y135.438 I2.58 J-.771 E.30626
G2 X97.164 Y137.765 I3.447 J-1.137 E.38342
G2 X102.255 Y139.434 I3.195 J-1.147 E.41926
G2 X106.925 Y140.728 I2.878 J-1.314 E.3749
G2 X108.744 Y142.082 I2.706 J-1.735 E.15738
G2 X112.437 Y140.828 I.157 J-5.604 E.27055
G2 X115.323 Y141.677 I2.096 J-1.796 E.21604
G2 X117.851 Y140.222 I.09 J-2.768 E.20863
G2 X120.849 Y140.165 I1.453 J-2.423 E.21468
G2 X123.077 Y137.965 I-.437 J-2.67 E.22676
G2 X124.574 Y138.011 I.836 J-2.795 E.1029
G2 X127.587 Y135.484 I.375 J-2.613 E.30135
G2 X129.428 Y135.062 I.285 J-2.983 E.13048
G2 X131.642 Y131.678 I-.349 J-2.644 E.31159
G2 X134.303 Y130.299 I.154 J-2.961 E.21345
G2 X135.076 Y127.663 I-1.83 J-1.968 E.19586
G2 X137.288 Y126.141 I-.915 J-3.698 E.18635
G2 X137.893 Y123.264 I-2.675 J-2.064 E.20658
G2 X139.599 Y121.297 I-1.892 J-3.365 E.18037
G2 X139.985 Y118.655 I-3.96 J-1.927 E.18421
G2 X141.261 Y115.257 I-1.168 J-2.377 E.27156
G2 X141.03 Y113.318 I-2.771 J-.653 E.13539
G2 X142.131 Y111.21 I-2.635 J-2.718 E.16426
G2 X140.988 Y108.224 I-8.425 J1.512 E.21845
G2 X141.67 Y105.175 I-1.812 J-2.006 E.22621
G2 X139.913 Y102.158 I-3.625 J.09 E.2474
G2 X140.354 Y99.453 I-5.902 J-2.351 E.18758
G2 X138.43 Y97.22 I-5.11 J2.458 E.20251
G2 X138.244 Y94.88 I-35.294 J1.632 E.15949
G2 X135.665 Y92.45 I-3.892 J1.549 E.24842
G2 X135.555 Y91.539 I-1.896 J-.233 E.06299
G2 X133.209 Y88.602 I-10.556 J6.028 E.25626
G3 X132.146 Y87.481 I.062 J-1.124 E.11566
G2 X130.569 Y86.032 I-9.093 J8.311 E.1456
G2 X128.341 Y84.731 I-2.548 J1.806 E.18063
G2 X127.809 Y83.849 I-1.983 J.595 E.07069
G2 X125.968 Y82.734 I-13.244 J19.788 E.14623
G2 X123.376 Y81.957 I-2.036 J2.081 E.19114
G2 X121.035 Y80.394 I-2.666 J1.457 E.19874
G2 X118.731 Y79.902 I-1.866 J3.098 E.16299
G2 X115.334 Y78.815 I-2.26 J1.211 E.26789
G2 X113.65 Y78.694 I-1.061 J3.007 E.116
G2 X111.153 Y77.972 I-1.872 J1.796 E.18493
G1 X113.699 Y80.432 F30000
G1 F2400
G1 X113.686 Y80.926 E.03355
G1 X114.994 Y81.115 E.08977
G1 X115.138 Y80.668 E.03188
G2 X113.699 Y80.432 I-.948 J1.274 E.10289
G1 X115.202 Y80.725 F30000
G1 F2400
G1 X115.25 Y81.152 E.02913
G1 X117.691 Y81.504 E.16747
G2 X116.955 Y80.46 I-2.358 J.879 E.08771
G2 X115.202 Y80.725 I-.666 J1.523 E.12704
G1 X118.971 Y81.62 F30000
G1 F2400
G1 X118.921 Y82.059 E.02997
G1 X119.894 Y82.407 E.07025
G1 X120.129 Y82.016 E.03098
G2 X118.971 Y81.62 I-.915 J.786 E.08712
G1 X120.496 Y82.138 F30000
G1 F2400
G1 X120.421 Y82.596 E.03146
G1 X121.53 Y82.992 E.08001
G1 X121.757 Y82.574 E.03236
G2 X120.496 Y82.138 I-1.152 J1.294 E.09301
G1 X123.853 Y83.608 F30000
G1 F2400
G1 X123.701 Y84.037 E.03091
G1 X124.68 Y84.623 E.0775
G1 X124.978 Y84.21 E.03462
G2 X123.853 Y83.608 I-1.173 J.839 E.08977
G1 X125.71 Y84.706 F30000
M73 P3 R9
G1 F2400
M73 P3 R9
G3 X126.754 Y85.348 I-.114 J1.355 E.08635
G1 X126.447 Y85.683 E.03081
G1 X125.544 Y85.141 E.07154
G1 X125.71 Y84.706 E.03162
G1 X128.36 Y86.455 F30000
G1 F2400
G1 X128.107 Y86.85 E.03188
G1 X128.746 Y87.429 E.05853
G1 X129.118 Y87.104 E.03355
G2 X128.36 Y86.455 I-1.079 J.492 E.06998
G1 X129.794 Y87.739 F30000
G1 F2400
G3 X130.748 Y88.663 I-.397 J1.364 E.09386
G1 X130.385 Y88.915 E.02996
G1 X129.528 Y88.138 E.07856
G1 X129.794 Y87.739 E.03252
G1 X133.142 Y91.165 F30000
G1 F2400
G1 X132.777 Y91.503 E.03384
G1 X133.536 Y92.527 E.08652
G1 X133.941 Y92.35 E.03
G2 X133.142 Y91.165 I-1.78 J.337 E.09977
G1 X135.438 Y94.287 F30000
G1 F2400
G3 X136.536 Y95.273 I-.605 J1.779 E.10299
G2 X136.712 Y96.982 I11.173 J-.283 E.11684
G1 X136.3 Y97.048 E.0283
G1 X135.092 Y94.626 E.18382
G1 X135.438 Y94.287 E.03287
G1 X137.674 Y98.791 F30000
G1 F2400
G1 X137.248 Y99.051 E.03393
G3 X137.975 Y101.043 I-4.642 J2.823 E.14492
G1 X138.447 Y101.002 E.03215
G2 X137.929 Y99.123 I-1.138 J-.697 E.14833
G1 X137.674 Y98.791 E.02846
G1 X139.084 Y103.672 F30000
G1 F2400
G3 X139.87 Y105.398 I-.962 J1.481 E.13603
G3 X140.016 Y106.68 I-1.04 J.767 E.09174
G1 X139.232 Y107.623 E.08328
G2 X138.683 Y103.871 I-13.59 J.07 E.2584
G1 X139.084 Y103.672 E.03037
G1 X139.789 Y109.48 F30000
G1 F2400
G1 X139.328 Y109.58 E.03201
G1 X139.383 Y110.705 E.07648
G3 X139.27 Y112.453 I-4.448 J.59 E.11977
G2 X140.244 Y110.729 I-.365 J-1.343 E.1496
G3 X139.789 Y109.48 I3.183 J-1.868 E.09077
G1 X139.439 Y114.011 F30000
G1 F2400
G3 X139.479 Y115.539 I-1.572 J.805 E.10738
G3 X139.444 Y116.906 I-.756 J.665 E.1021
G1 X138.509 Y117.58 E.07827
G1 X139.03 Y114.07 E.24101
G1 X139.439 Y114.011 E.02807
G1 X138.307 Y119.121 F30000
G1 F2400
G3 X138.008 Y120.232 I-1.145 J.288 E.08161
G3 X137.463 Y121.515 I-1.827 J-.02 E.09713
G1 X137.099 Y121.275 E.02961
G1 X137.882 Y119.086 E.15784
G1 X138.307 Y119.121 E.02894
G1 X136.291 Y123.985 F30000
G1 F2400
G1 X135.873 Y123.852 E.02984
G1 X134.859 Y125.544 E.13393
G1 X135.154 Y125.85 E.02887
G2 X136.291 Y123.985 I-1.901 J-2.44 E.15163
G1 X133.441 Y128.447 F30000
G1 F2400
G1 X133.051 Y128.217 E.03077
G1 X131.816 Y129.579 E.12483
G1 X132.104 Y129.947 E.03174
G2 X133.441 Y128.447 I-1.462 J-2.649 E.1391
G1 X129.89 Y131.743 F30000
G1 F2400
G3 X129.905 Y132.859 I-1.444 J.577 E.07746
G3 X127.858 Y133.788 I-2.636 J-3.089 E.15467
G1 X127.681 Y133.382 E.03008
G1 X129.89 Y131.743 E.18682
G1 X125.902 Y134.701 F30000
G1 F2400
G3 X125.442 Y136.171 I-1.623 J.299 E.10876
G3 X123.959 Y136.373 I-3.798 J-22.264 E.10169
G1 X123.795 Y135.902 E.0339
G2 X125.902 Y134.701 I-1.965 J-5.899 E.16575
G1 X121.581 Y136.949 F30000
G1 F2400
G3 X120.313 Y138.493 I-1.483 J.075 E.14889
G3 X118.304 Y138.536 I-1.033 J-1.292 E.14663
G1 X118.33 Y138.132 E.02753
G2 X120.328 Y137.541 I-.485 J-5.316 E.1424
G1 X121.581 Y136.949 E.09413
G1 X116.891 Y138.492 F30000
G1 F2400
G3 X113.322 Y139.185 I-3.527 J-8.631 E.2485
M73 P4 R9
G2 X114.766 Y140.015 I1.198 J-.413 E.12339
M73 P4 R9
G3 X115.828 Y139.817 I.946 J2.122 E.0741
G2 X116.891 Y138.492 I-.938 J-1.841 E.11883
G1 X111.062 Y139.745 F30000
G1 F2400
G3 X110.29 Y139.978 I-.841 J-1.386 E.05535
G3 X108.113 Y139.442 I-.924 J-.933 E.18244
G1 X110.952 Y139.302 E.19299
G1 X111.062 Y139.745 E.031
G1 X105.729 Y139.479 F30000
G1 F2400
G1 X105.728 Y139 E.03248
G1 X104.347 Y138.795 E.09483
G1 X104.196 Y139.231 E.03133
G2 X105.729 Y139.479 I1.03 J-1.513 E.10888
G1 X100.732 Y138.235 F30000
G1 F2400
G3 X99.443 Y137.872 I-.34 J-1.262 E.09547
G1 X99.664 Y137.435 E.03326
G1 X100.751 Y137.824 E.07839
G1 X100.732 Y138.235 E.02795
G1 X95.885 Y136.192 F30000
G1 F2400
G3 X94.811 Y135.618 I-.038 J-1.221 E.08663
G1 X95.116 Y135.254 E.03224
G1 X96 Y135.784 E.07003
G1 X95.885 Y136.192 E.02881
G1 X92.484 Y133.685 F30000
G1 F2400
G1 X90.381 Y131.78 E.19272
G1 X90.027 Y131.993 E.02807
G3 X90.814 Y133.517 I-9.361 J5.797 E.11654
G2 X92.484 Y133.685 I.927 J-.824 E.12523
G1 X88.827 Y130.371 F30000
G1 F2400
G3 X87.055 Y128.27 I4.393 J-5.502 E.18783
G2 X87.137 Y130.009 I2.062 J.774 E.12152
G2 X88.827 Y130.371 I1.163 J-1.305 E.12271
G1 X89.746 Y129.538 F30000
G1 F2400
G1 X89.095 Y128.948 E.05968
G1 X85.8 Y124.505 E.37567
G1 X83.435 Y119.505 E.37562
G1 X82.091 Y114.14 E.3756
G1 X81.819 Y108.616 E.37563
G1 X82.561 Y103.617 E.34323
G3 X82.891 Y102.42 I5.262 J.804 E.08452
G1 X84.299 Y98.482 E.28398
G3 X84.755 Y97.503 I2.691 J.655 E.07387
G1 X86.975 Y93.798 E.2933
G3 X91.052 Y89.095 I54.406 J43.04 E.42287
G1 X93.754 Y87.091 E.22846
G3 X97.945 Y84.641 I9.672 J11.737 E.33108
G1 X100.495 Y83.435 E.19158
G1 X105.859 Y82.092 E.37552
G1 X111.207 Y81.815 E.36374
G1 X116.854 Y82.631 E.38744
G1 X121.51 Y84.297 E.33587
G3 X126.807 Y87.338 I-34.304 J65.876 E.41496
G1 X130.905 Y91.052 E.37558
G1 X134.113 Y95.377 E.3657
G3 X136.565 Y100.495 I-276.572 J135.675 E.38541
G1 X137.557 Y104.455 E.27725
G3 X138.055 Y108.826 I-10.745 J3.438 E.3007
G1 X138.15 Y110.765 E.13186
G3 X129.159 Y130.672 I-28.531 J-.903 E1.52222
G1 X124.505 Y134.2 E.39667
G1 X119.8 Y136.425 E.35343
M73 P5 R9
G3 X114.14 Y137.909 I-18.89 J-60.534 E.39753
M73 P5 R9
G1 X108.616 Y138.181 E.37563
G1 X103.144 Y137.369 E.37566
G1 X98.625 Y135.752 E.32595
G3 X97.377 Y135.17 I.838 J-3.429 E.09415
G1 X93.556 Y132.879 E.30257
G3 X89.746 Y129.538 I40.741 J-50.294 E.34423
G1 X83.748 Y123.053 F30000
G1 F2400
G1 X83.364 Y124.221 E.0835
G2 X83.967 Y125.359 I1.29 J.046 E.09154
G2 X85.637 Y126.358 I1.199 J-.11 E.15385
G3 X84.545 Y124.74 I3.522 J-3.554 E.13339
G1 X83.748 Y123.053 E.12672
G1 X82.853 Y122.061 F30000
G1 F2400
G3 X81.638 Y120.664 I.35 J-1.531 E.13444
G3 X81.936 Y118.6 I1.193 J-.882 E.15712
G2 X83.147 Y121.784 I8.609 J-1.453 E.23288
G1 X82.853 Y122.061 E.02747
G1 X80.951 Y116.664 F30000
G1 F2400
G2 X80.203 Y115.453 I-2.821 J.906 E.09768
G3 X80.835 Y113.732 I1.067 J-.585 E.14101
G2 X81.406 Y116.486 I7.212 J-.059 E.19225
G1 X80.951 Y116.664 E.03317
G1 X80.274 Y111.359 F30000
G1 F2400
G3 X80.224 Y109.857 I1.325 J-.796 E.10655
G1 X80.648 Y109.942 E.02941
G1 X80.713 Y111.246 E.08865
G1 X80.274 Y111.359 E.03077
G1 X81.187 Y108.317 F30000
G1 F2400
G1 X81.478 Y114.231 E.40211
G1 X82.851 Y119.714 E.38386
G1 X85.268 Y124.824 E.38388
G1 X88.635 Y129.364 E.38393
G1 X92.471 Y132.84 E.35153
G2 X93.202 Y133.387 I1.741 J-1.566 E.06244
G1 X97.896 Y136.201 E.37167
G1 X102.735 Y137.932 E.34901
G1 X108.585 Y138.8 E.40167
G1 X114.231 Y138.522 E.38389
G1 X117.599 Y137.679 E.23577
G2 X122.653 Y135.759 I-3.172 J-15.963 E.36887
G1 X124.824 Y134.732 E.1631
G1 X129.364 Y131.365 E.38393
G1 X133.16 Y127.177 E.38384
G1 X136.066 Y122.328 E.38391
G1 X137.97 Y117.006 E.38388
G1 X138.732 Y111.872 E.35251
G2 X138.522 Y105.769 I-59.731 J-.999 E.41493
G1 X137.553 Y101.898 E.27102
G2 X135.933 Y97.715 I-20.335 J5.47 E.30522
G1 X134.732 Y95.176 E.1907
G1 X131.365 Y90.636 E.38393
G1 X127.177 Y86.84 E.38384
G1 X123.175 Y84.442 E.31684
G2 X121.666 Y83.697 I-3.253 J4.691 E.11473
G1 X117.003 Y82.029 E.33631
G1 X111.236 Y81.195 E.39576
