; HEADER_BLOCK_START
; generated by Creality_Print V6.1.0.2041 on 2025-04-23 at 08:56:40
; total layer number: 34
; filament_density: 1.24
; filament_diameter: 1.75
; max_z_height: 9.90
; HEADER_BLOCK_END

; MINX = 67.50
; MINY = 43.98
; MINZ = 0.00
; MAXX = 152.50
; MAXY = 176.02
; MAXZ = 9.81

; THUMBNAIL_BLOCK_START

;
; THUMBNAIL_BLOCK_END

; THUMBNAIL_BLOCK_START

;
; THUMBNAIL_BLOCK_END

; external perimeters extrusion width = 0.62mm
; perimeters extrusion width = 0.62mm
; infill extrusion width = 0.62mm
; solid infill extrusion width = 0.62mm
; top infill extrusion width = 0.62mm
; support material extrusion width = 0.62mm
; first layer extrusion width = 0.62mm

; EXECUTABLE_BLOCK_START
EXCLUDE_OBJECT_DEFINE NAME=S_Sponge_Holder.stl_id_0_copy_0 CENTER=110,110 POLYGON=[[67.5,45.6545],[67.506,45.5225],[67.525,45.3925],[67.557,45.2635],[67.601,45.1365],[67.657,45.0135],[67.725,44.8935],[67.804,44.7795],[67.894,44.6695],[67.994,44.5665],[68.104,44.4705],[68.223,44.3805],[68.35,44.2995],[68.485,44.2265],[68.626,44.1625],[68.774,44.1065],[68.926,44.0615],[69.081,44.0255],[69.24,44.0005],[69.401,43.9845],[69.563,43.9795],[150.437,43.9795],[150.599,43.9845],[150.76,44.0005],[150.919,44.0255],[151.074,44.0615],[151.226,44.1065],[151.374,44.1625],[151.515,44.2265],[151.65,44.2995],[151.777,44.3805],[151.896,44.4705],[152.006,44.5665],[152.106,44.6695],[152.196,44.7795],[152.275,44.8935],[152.343,45.0135],[152.399,45.1365],[152.443,45.2635],[152.475,45.3925],[152.494,45.5225],[152.5,45.6545],[152.5,111.304],[152.494,111.436],[152.475,111.567],[152.443,111.695],[152.399,111.823],[152.343,111.945],[152.275,112.066],[152.196,112.179],[152.106,112.29],[152.006,112.393],[151.896,112.488],[71.619,175.983],[71.564,176.011],[71.508,176.02],[68.224,176.02],[68.169,176.011],[68.114,175.983],[68.059,175.938],[68.006,175.874],[67.954,175.792],[67.903,175.692],[67.855,175.577],[67.809,175.446],[67.765,175.299],[67.724,175.14],[67.687,174.965],[67.652,174.781],[67.621,174.584],[67.594,174.378],[67.571,174.162],[67.552,173.942],[67.537,173.713],[67.526,173.481],[67.519,173.248],[67.517,173.012],[67.5,111.304],[67.5,45.6545]]
M73 P0 R36
M106 S0
M106 P2 S0
;TYPE:Custom
M141 S35;set chamber_temperature
START_PRINT EXTRUDER_TEMP=210 BED_TEMP=50
T0
M204 S2000
M104 S210
G1 Z3 F600
M83
G92 E0
G1 Z1 F600
G90
G21
M83 ; use relative distances for extrusion
SET_PRESSURE_ADVANCE ADVANCE=0.026; Override pressure advance value
G1 E-1.2 F2400
M106 S0
;LAYER_CHANGE
;Z:0.3
;HEIGHT:0.3
;BEFORE_LAYER_CHANGE
;0.3
G92 E0

;AFTER_LAYER_CHANGE
;0.3
;_SET_FAN_SPEED_CHANGING_LAYER
SET_VELOCITY_LIMIT ACCEL=500 ACCEL_TO_DECEL=250
SET_VELOCITY_LIMIT SQUARE_CORNER_VELOCITY=12
EXCLUDE_OBJECT_START NAME=S_Sponge_Holder.stl_id_0_copy_0
G1 Z.4 F30000
G1 X70.138 Y74.959
G1 Z.3
G1 E1.2 F1800
;TYPE:Support
;WIDTH:0.62
G1 F2400
G2 X70.22 Y74.947 I.31 J1.78 E.76533
G1 E-1.08
;WIPE_START
G1 X70.923 Y75.016 E-.04234
G1 X71.546 Y75.349 E-.0424
G1 X71.919 Y75.803 E-.03526
;WIPE_END
G1 X78.163 Y80.193 Z.7 F30000
G1 X123.466 Y112.042 Z.7
G1 Z.3
G1 E1.2 F1800
G1 F2400
G1 X150.423 Y112.042 E1.83077
G2 X151.533 Y111.285 I.157 J-.962 E.10069
G1 X151.533 Y45.674 E4.45584
G2 X150.423 Y44.917 I-.953 J.204 E.10069
G1 X118.94 Y44.917 E2.13819
G3 X115.665 Y44.917 I-1.637 J1.629 E.7384
G1 X69.577 Y44.917 E3.13007
G2 X68.467 Y45.674 I-.157 J.962 E.10069
G1 X68.467 Y75.479 E2.02415
G3 X68.467 Y78.018 I1.925 J1.269 E.80141
G1 X68.467 Y111.285 E2.25927
G2 X69.256 Y112.169 I1.039 J-.132 E.08556
G1 X68.863 Y113.342 E.08397
G1 X68.328 Y113.342 E.03634
G1 X68.328 Y156.699 E2.94458
G1 X72.301 Y156.7 E.26981
G1 X72.828 Y158.805 E.14737
G1 X72.773 Y170.04 E.76306
G3 X72.602 Y174.41 I-15.092 J1.599 E.29801
G1 X72.126 Y175.343 E.07116
G1 X67.399 Y175.338 E.32104
G3 X66.905 Y172.975 I16.838 J-4.754 E.1641
G1 X66.974 Y158.979 E.9505
G2 X65.775 Y159.896 I.806 J2.298 E.10425
G2 X65.388 Y163.518 I6.523 J2.527 E.25025
G2 X66.06 Y166.054 I4.587 J.143 E.1807
G2 X65.406 Y168.011 I1.977 J1.749 E.14401
G2 X66.069 Y171.045 I4.607 J.582 E.21507
G1 X65.781 Y171.396 E.03082
G2 X66.161 Y175.939 I4.918 J1.875 E.32023
G2 X66.205 Y177.409 I2.29 J.668 E.10151
G2 X68.612 Y178.978 I2.865 J-1.765 E.20158
G2 X71.23 Y178.268 I-.299 J-6.284 E.18569
G2 X74.1 Y174.847 I1.295 J-1.828 E.45303
G2 X73.876 Y173.623 I-2.761 J-.128 E.08523
G2 X74.309 Y172.735 I-1.726 J-1.392 E.06771
G2 X73.998 Y168.577 I-9.569 J-1.375 E.2854
G2 X74.347 Y166.784 I-2.717 J-1.459 E.12592
G2 X74.245 Y164.63 I-2.856 J-.944 E.14977
G3 X74.309 Y162.735 I2.329 J-.87 E.13217
G2 X73.963 Y158.476 I-9.474 J-1.373 E.29265
G2 X71.713 Y155.012 I-2.164 J-1.057 E.33708
G3 X104.394 Y128.432 I30.553 J4.186 E3.14924
G1 X123.466 Y112.042 E1.70786
G1 X123.237 Y111.425 F30000
G1 F2400
G1 X150.413 Y111.425 E1.84561
G2 X150.916 Y111.304 I-.018 J-1.179 E.03539
G1 X150.916 Y45.655 E4.45847
G2 X150.413 Y45.534 I-.521 J1.058 E.03539
G1 X120.065 Y45.534 E2.06109
G3 X114.54 Y45.534 I-2.762 J1.001 E.76554
G1 X69.587 Y45.534 E3.05297
G2 X69.084 Y45.655 I.018 J1.179 E.03539
G1 X69.084 Y74.11 E1.93251
G3 X69.084 Y79.385 I1.292 J2.637 E.80831
G1 X69.084 Y111.266 E2.16521
M73 P1 R36
G1 X69.982 Y111.944 E.0764
M73 P1 R36
G1 X69.308 Y113.959 E.14432
G1 X68.945 Y113.959 E.02459
G1 X68.945 Y156.082 E2.86073
G1 X71.346 Y156.082 E.16304
G1 X71.394 Y155.579 E.03434
G1 X71.002 Y155.504 E.02711
G3 X104.185 Y127.798 I31.284 J3.743 E3.23537
G1 X123.237 Y111.425 E1.70609
G1 X123.009 Y110.808 F30000
G1 F2400
G1 X150.298 Y110.808 E1.85335
G1 X150.298 Y46.151 E4.39107
G1 X120.842 Y46.151 E2.00052
G3 X113.774 Y46.151 I-3.534 J.372 E.80872
G1 X69.702 Y46.151 E2.9931
G1 X69.702 Y73.27 E1.84177
G3 X69.702 Y80.227 I.682 J3.478 E.84949
G1 X69.702 Y110.959 E2.08714
G1 X70.709 Y111.719 E.08568
G1 X69.752 Y114.576 E.20467
G1 X69.563 Y114.576 E.01284
G1 X69.563 Y155.465 E2.77689
G1 X70.382 Y155.465 E.05563
G3 X103.976 Y127.164 I31.912 J3.792 E3.28446
G1 X123.009 Y110.808 E1.70431
G1 X122.78 Y110.19 F30000
G1 F2400
G1 X149.681 Y110.19 E1.82696
G1 X149.681 Y46.769 E4.30722
G1 X121.474 Y46.769 E1.91563
M73 P1 R35
G3 X113.128 Y46.769 I-4.173 J-.259 E.85695
M73 P1 R35
G1 X70.319 Y46.769 E2.9073
G1 X70.319 Y72.581 E1.75299
G3 X70.319 Y80.917 I.056 J4.168 E.89701
G1 X70.319 Y110.651 E2.01934
G1 X71.435 Y111.493 E.09497
G1 X70.18 Y115.241 E.26843
G1 X70.18 Y150.833 E2.41715
G1 X70.661 Y150.898 E.03293
G3 X103.762 Y126.533 I31.69 J8.385 E3.01699
M73 P2 R35
G1 X122.78 Y110.19 E1.70298
M73 P2 R35
G1 X122.551 Y109.573 F30000
G1 F2400
G1 X103.539 Y125.911 E1.70239
G2 X71.251 Y147.088 I-1.189 J33.389 E2.79598
G1 X70.797 Y147.004 E.03136
G1 X70.797 Y115.342 E2.15029
G1 X72.162 Y111.268 E.29177
G1 X70.936 Y110.344 E.10425
G1 X70.936 Y81.499 E1.95894
G2 X70.936 Y71.998 I-.561 J-4.751 E.94421
G1 X70.936 Y47.386 E1.67149
G1 X112.587 Y47.386 E2.82864
G2 X122.018 Y47.386 I4.716 J-.876 E.90367
G1 X149.064 Y47.386 E1.83675
G1 X149.064 Y109.573 E4.22337
G1 X122.551 Y109.573 E1.80057
G1 X122.322 Y108.956 F30000
G1 F2400
G1 X148.446 Y108.956 E1.77419
G1 X148.446 Y48.003 E4.13951
G1 X122.512 Y48.003 E1.76129
G3 X112.095 Y48.003 I-5.209 J-1.503 E.94974
G1 X71.554 Y48.003 E2.75331
G1 X71.554 Y71.477 E1.59416
G3 X71.554 Y82.02 I-1.183 J5.272 E.99077
G1 X71.554 Y110.036 E1.90269
G1 X72.888 Y111.043 E.11354
G1 X71.415 Y115.443 E.31511
G1 X71.415 Y144.106 E1.94662
G1 X71.842 Y144.207 E.02983
G3 X103.317 Y125.288 I30.514 J15.123 E2.63412
G1 X122.322 Y108.956 E1.70181
G1 X122.093 Y108.338 F30000
G1 F2400
G1 X147.829 Y108.338 E1.7478
G1 X147.829 Y48.621 E4.05566
G1 X122.946 Y48.621 E1.68988
G3 X111.658 Y48.621 I-5.644 J-2.11 E.99278
M73 P3 R35
G1 X72.171 Y48.621 E2.68171
M73 P3 R35
G1 X72.171 Y70.999 E1.51978
G3 X72.171 Y82.5 I-1.811 J5.751 E1.03651
G1 X72.171 Y109.728 E1.84916
G1 X73.615 Y110.818 E.12282
G1 X72.032 Y115.543 E.33845
G1 X72.032 Y141.665 E1.77401
G1 X72.446 Y141.774 E.02907
G3 X103.095 Y124.665 I29.809 J17.393 E2.50078
G1 X122.093 Y108.338 E1.70122
G1 X121.864 Y107.721 F30000
G1 F2400
G1 X102.873 Y124.042 E1.70063
G2 X73.037 Y139.648 I-.608 J35.158 E2.38454
G1 X72.65 Y139.525 E.02763
G1 X72.65 Y115.644 E1.62189
G1 X74.341 Y110.593 E.36179
G1 X72.789 Y109.421 E.13211
G1 X72.789 Y82.952 E1.7976
G2 X72.789 Y70.545 I-2.457 J-6.204 E1.08188
G1 X72.789 Y49.238 E1.44703
G1 X111.24 Y49.238 E2.61142
G2 X123.364 Y49.238 I6.062 J-2.738 E1.03578
G1 X147.211 Y49.238 E1.61961
G1 X147.211 Y107.721 E3.97181
G1 X121.864 Y107.721 E1.72141
G1 X121.636 Y107.104 F30000
G1 F2400
G1 X102.65 Y123.419 E1.70005
G2 X73.642 Y137.732 I-.247 J36.052 E2.27816
G1 X73.267 Y137.603 E.02692
G1 X73.267 Y115.744 E1.48452
G1 X75.068 Y110.367 E.38513
G1 X73.406 Y109.113 E.14139
G1 X73.406 Y83.343 E1.75018
G2 X73.406 Y70.154 I-3.053 J-6.594 E1.12243
G1 X73.406 Y49.855 E1.37857
G1 X110.834 Y49.855 E2.5419
G2 X123.767 Y49.855 I6.467 J-3.391 E1.07886
G1 X146.594 Y49.855 E1.55027
G1 X146.594 Y107.104 E3.88795
G1 X121.636 Y107.104 E1.69503
M73 P4 R35
G1 X121.407 Y106.486 F30000
M73 P4 R35
G1 F2400
G1 X145.977 Y106.486 E1.66864
G1 X145.977 Y50.473 E3.8041
G1 X124.118 Y50.473 E1.48451
G3 X110.485 Y50.473 I-6.816 J-3.99 E1.117
G1 X74.023 Y50.473 E2.47629
G1 X74.023 Y69.751 E1.30926
G3 X74.023 Y83.746 I-3.708 J6.997 E1.16549
G1 X74.023 Y108.806 E1.70191
G1 X75.794 Y110.142 E.15068
G1 X73.884 Y115.845 E.40846
G1 X73.884 Y136.387 E1.39508
G3 X102.428 Y122.796 I28.415 J22.906 E2.22058
G1 X121.407 Y106.486 E1.69946
G1 X121.178 Y105.869 F30000
G1 F2400
G1 X145.359 Y105.869 E1.64225
G1 X145.359 Y51.09 E3.72024
G1 X124.469 Y51.09 E1.41875
M73 P4 R34
G3 X110.137 Y51.09 I-7.166 J-4.621 E1.15592
M73 P4 R34
G1 X74.641 Y51.09 E2.41069
G1 X74.641 Y69.402 E1.24366
G3 X74.641 Y84.095 I-4.306 J7.346 E1.20356
G1 X74.641 Y108.498 E1.65735
G1 X76.521 Y109.917 E.15996
G1 X74.502 Y115.946 E.4318
G1 X74.502 Y134.687 E1.27279
G3 X102.203 Y122.175 I27.818 J24.669 E2.12661
G1 X121.178 Y105.869 E1.69912
G1 X120.949 Y105.252 F30000
G1 F2400
G1 X144.742 Y105.252 E1.61587
G1 X144.742 Y51.707 E3.63639
G1 X124.805 Y51.707 E1.354
G3 X109.8 Y51.707 I-7.503 J-5.258 E1.194
G1 X75.258 Y51.707 E2.34589
G1 X75.258 Y69.054 E1.17806
G3 X75.258 Y84.443 I-4.933 J7.695 E1.24234
G1 X75.258 Y108.191 E1.61279
G1 X77.247 Y109.692 E.16925
G1 X75.119 Y116.046 E.45514
M73 P5 R34
G1 X75.119 Y133.143 E1.16112
M73 P5 R34
G3 X101.968 Y121.563 I27.154 J26.042 E2.03949
G1 X120.949 Y105.252 E1.69971
G1 X120.72 Y104.634 F30000
G1 F2400
G1 X144.125 Y104.634 E1.58948
G1 X144.125 Y52.325 E3.55254
G1 X125.115 Y52.325 E1.29104
G3 X109.49 Y52.325 I-7.812 J-5.872 E1.22954
G1 X75.875 Y52.325 E2.28292
G1 X75.875 Y68.713 E1.11299
G3 X75.875 Y84.782 I-5.574 J8.034 E1.28076
G1 X75.875 Y107.883 E1.56889
G1 X77.974 Y109.466 E.17853
G1 X75.736 Y116.147 E.47848
G1 X75.736 Y131.65 E1.05284
G3 X101.732 Y120.951 I26.717 J27.986 E1.95385
G1 X120.72 Y104.634 E1.70029
G1 X120.492 Y104.017 F30000
G1 F2400
G1 X143.507 Y104.017 E1.56309
G1 X143.507 Y52.942 E3.46868
G1 X125.424 Y52.942 E1.22808
G3 X109.181 Y52.942 I-8.122 J-6.511 E1.26552
G1 X76.493 Y52.942 E2.21996
G1 X76.493 Y68.403 E1.05003
G3 X76.493 Y85.094 I-6.184 J8.345 E1.31636
G1 X76.493 Y107.575 E1.52683
G1 X78.7 Y109.241 E.18782
G1 X76.354 Y116.248 E.50182
G1 X76.354 Y130.226 E.9493
G3 X101.497 Y120.34 I25.914 J28.99 E1.87391
G1 X120.492 Y104.017 E1.70087
G1 X120.263 Y103.399 F30000
G1 F2400
G1 X142.89 Y103.399 E1.53671
G1 X142.89 Y53.56 E3.38483
G1 X125.727 Y53.56 E1.1656
G3 X108.878 Y53.56 I-8.425 J-7.16 E1.30105
G1 X77.11 Y53.56 E2.15748
G1 X77.11 Y68.094 E.98706
G3 X77.11 Y85.406 I-6.819 J8.656 E1.35238
G1 X77.11 Y107.268 E1.48476
M73 P6 R34
G1 X79.427 Y109.016 E.1971
M73 P6 R34
G1 X76.971 Y116.348 E.52516
G1 X76.971 Y128.857 E.84951
G3 X101.262 Y119.728 I25.549 J31.101 E1.79438
G1 X120.263 Y103.399 E1.70145
G1 X120.034 Y102.782 F30000
G1 F2400
G1 X101.027 Y119.116 E1.70203
G2 X77.588 Y127.592 I1.485 J40.75 E1.72018
G1 X77.588 Y116.449 E.75677
G1 X80.153 Y108.791 E.5485
G1 X77.727 Y106.96 E.20639
G1 X77.727 Y85.719 E1.44256
G2 X77.727 Y67.782 I-7.481 J-8.969 E1.389
G1 X77.727 Y54.177 E.92398
G1 X108.605 Y54.177 E2.09699
G2 X126 Y54.177 I8.698 J-7.768 E1.33342
G1 X142.273 Y54.177 E1.10511
G1 X142.273 Y102.782 E3.30097
G1 X120.034 Y102.782 E1.51032
G1 X119.805 Y102.165 F30000
G1 F2400
G1 X100.791 Y118.504 E1.70261
G2 X78.206 Y126.342 I1.493 J40.763 E1.64778
G1 X78.206 Y116.55 E.66502
G1 X80.88 Y108.565 E.57184
G1 X78.345 Y106.653 E.21567
G1 X78.345 Y85.993 E1.40311
G2 X78.345 Y67.507 I-8.082 J-9.243 E1.42138
G1 X78.345 Y54.794 E.86337
G1 X108.331 Y54.794 E2.03651
G2 X126.274 Y54.794 I8.971 J-8.395 E1.36604
G1 X141.655 Y54.794 E1.04463
G1 X141.655 Y102.165 E3.21712
G1 X119.805 Y102.165 E1.48393
G1 X119.576 Y101.547 F30000
G1 F2400
G1 X100.556 Y117.893 E1.70319
G2 X78.823 Y125.152 I1.738 J41.364 E1.5767
G1 X78.823 Y116.65 E.57738
G1 X81.606 Y108.34 E.59517
G1 X78.962 Y106.345 E.22496
G1 X78.962 Y86.266 E1.36366
G2 X78.962 Y67.232 I-8.702 J-9.517 E1.45401
G1 X78.962 Y55.412 E.80276
G1 X108.058 Y55.412 E1.97602
G2 X126.547 Y55.412 I9.244 J-9.043 E1.39891
G1 X141.038 Y55.412 E.98414
G1 X141.038 Y101.547 E3.13327
M73 P7 R34
G1 X119.576 Y101.547 E1.45755
M73 P7 R34
G1 X119.347 Y100.93 F30000
G1 F2400
G1 X140.421 Y100.93 E1.43116
G1 X140.421 Y56.029 E3.04941
G1 X126.824 Y56.029 E.92341
G3 X107.781 Y56.029 I-9.521 J-9.72 E1.43244
G1 X79.579 Y56.029 E1.91529
G1 X79.579 Y66.957 E.74214
G3 X79.579 Y86.539 I-9.34 J9.791 E1.48688
M73 P7 R33
G1 X79.579 Y106.038 E1.32422
M73 P7 R33
G1 X82.333 Y108.115 E.23424
G1 X79.44 Y116.751 E.61851
G1 X79.44 Y123.996 E.49204
G3 X100.321 Y117.281 I23.23 J36.411 E1.50607
G1 X119.347 Y100.93 E1.70377
G1 X119.119 Y100.313 F30000
G1 F2400
G1 X100.08 Y116.673 E1.70481
G2 X80.058 Y122.853 I2.704 J44.292 E1.43665
G1 X80.058 Y116.851 E.40755
G1 X83.059 Y107.89 E.64185
G1 X80.197 Y105.73 E.24353
G1 X80.197 Y86.812 E1.28477
G2 X80.197 Y66.682 I-9.997 J-10.065 E1.51996
G1 X80.197 Y56.646 E.68153
G1 X107.543 Y56.646 E1.85717
G2 X127.062 Y56.646 I9.76 J-10.32 E1.46147
G1 X139.803 Y56.646 E.86528
G1 X139.803 Y100.313 E2.96556
G1 X119.119 Y100.313 E1.40477
G1 X118.89 Y99.695 F30000
G1 F2400
G1 X139.186 Y99.695 E1.37838
G1 X139.186 Y57.264 E2.8817
G1 X127.301 Y57.264 E.80716
G3 X107.304 Y57.264 I-9.998 J-10.936 E1.49065
G1 X80.814 Y57.264 E1.79904
G1 X80.814 Y66.419 E.6218
G3 X80.814 Y87.078 I-10.647 J10.329 E1.55196
G1 X80.814 Y105.422 E1.24587
G1 X83.786 Y107.665 E.25282
G1 X80.675 Y116.952 E.66519
G1 X80.675 Y121.793 E.32877
G3 X99.832 Y116.073 I22.06 J38.94 E1.36934
G1 X118.89 Y99.695 E1.70654
G1 X118.661 Y99.078 F30000
G1 F2400
G1 X138.569 Y99.078 E1.352
G1 X138.569 Y57.881 E2.79785
M73 P8 R33
G1 X127.539 Y57.881 E.74903
M73 P8 R33
G3 X107.066 Y57.881 I-10.237 J-11.567 E1.51996
G1 X81.431 Y57.881 E1.74092
G1 X81.431 Y66.181 E.56368
G3 X81.431 Y87.316 I-11.25 J10.568 E1.58104
G1 X81.431 Y105.115 E1.20878
G1 X84.512 Y107.439 E.2621
G1 X81.292 Y117.053 E.68853
G1 X81.292 Y120.713 E.24859
G3 X99.584 Y115.472 I21.072 J39.002 E1.30237
G1 X118.661 Y99.078 E1.70826
G1 X118.432 Y98.461 F30000
G1 F2400
G1 X99.336 Y114.871 E1.70999
G2 X81.91 Y119.711 I2.942 J44.382 E1.23689
G1 X81.91 Y117.153 E.17371
G1 X85.239 Y107.214 E.71187
G1 X82.049 Y104.807 E.27139
G1 X82.049 Y87.555 E1.1717
G2 X82.049 Y65.942 I-11.867 J-10.806 E1.61025
G1 X82.049 Y58.498 E.50555
G1 X106.827 Y58.498 E1.68279
G2 X127.778 Y58.498 I10.475 J-12.214 E1.5494
G1 X137.951 Y58.498 E.69091
G1 X137.951 Y98.461 E2.714
G1 X118.432 Y98.461 E1.32561
G1 X118.203 Y97.843 F30000
G1 F2400
G1 X137.334 Y97.843 E1.29922
G1 X137.334 Y59.116 E2.63014
G1 X128.016 Y59.116 E.63278
G3 X106.589 Y59.116 I-10.714 J-12.876 E1.57897
G1 X82.666 Y59.116 E1.62467
G1 X82.666 Y65.704 E.44743
G3 X82.666 Y87.793 I-12.499 J11.045 E1.63959
G1 X82.666 Y104.5 E1.13461
G1 X85.965 Y106.989 E.28067
G1 X82.527 Y117.254 E.73521
G1 X82.527 Y118.709 E.09882
G3 X99.088 Y114.27 I19.751 J40.574 E1.17151
G1 X118.203 Y97.843 E1.71172
G1 X117.975 Y97.226 F30000
G1 F2400
G1 X136.716 Y97.226 E1.27284
G1 X136.716 Y59.733 E2.54629
G1 X128.266 Y59.733 E.57387
G3 X106.339 Y59.733 I-10.964 J-13.586 E1.61011
G1 X83.284 Y59.733 E1.56575
G1 X83.284 Y65.465 E.3893
